%
O01001
(Using high feed G1 F5000. instead of G0.)
(T1 D=6.35 CR=0. - ZMIN=-13. - flat end mill)
(T2 D=19.05 CR=0. - ZMIN=0. - flat end mill)
(T3 D=6.35 CR=0. TAPER=45deg - ZMIN=-1.054 - chamfer mill)
(T4 D=2.705 CR=0. TAPER=118deg - ZMIN=-9.144 - drill)
(T5 D=3.505 CR=0. - ZMIN=-9.144 - right hand tap)
N10 G90 G17
N15 G21
N20 G53 G0 Z0.

(Face1)
N25 T2 M6
N30 S5000 M3
N35 G17 G90
N40 G54
N45 M8
N50 G1 X88.256 Y-42.677 F5000.
N55 G0 G43 Z15. H2
N60 T1
N65 G0 Z5.
N70 G1 Z1.905 F508.
N75 G18 G3 X86.351 Z0. I-1.905 K0.
N80 G1 X85.481
N85 X43.942 F1016.
N90 X32.004
N95 X-9.535
N100 G17 G2 Y-31.512 I0. J5.582
N105 G1 X85.481
N110 G3 Y-20.347 I0. J5.582
N115 G1 X-9.535
N120 G2 Y-9.182 I0. J5.582
N125 G1 X85.481
N130 G18 G2 X87.386 Z1.905 I0. K1.905
N135 G0 Z15.
N140 M9
N145 M5
N150 G53 G0 Z0.

(2D Adaptive1)
N155 M1
N160 T1 M6
N165 S5000 M3
N170 G17 G90
N175 G54
N180 M8
N185 G1 X37.324 Y-17.339 F5000.
N190 G0 G43 Z15. H1
N195 T3
N200 G0 Z5.
N205 Z2.5
N210 G3 X41.179 Y-13.838 Z2.285 I0.752 J3.045 F338.67
N215 X36.486 Y-11.597 Z2.071 I-3.099 J-0.456
N220 X36.188 Y-16.784 Z1.856 I1.593 J-2.693
N225 X41.096 Y-15.098 Z1.642 I1.888 J2.491
N230 X37.682 Y-11.198 Z1.427 I-3.016 J0.804
N235 X35.367 Y-15.828 Z1.213 I0.397 J-3.092
N240 X40.523 Y-16.218 Z0.998 I2.709 J1.536
N245 X38.934 Y-11.304 Z0.784 I-2.444 J1.924
N250 X34.992 Y-14.63 Z0.569 I-0.854 J-2.986
N255 X39.557 Y-17.018 Z0.355 I3.084 J0.339
N260 X40.039 Y-11.895 Z0.14 I-1.479 J2.723
N265 X35.121 Y-13.386 Z-0.075 I-1.958 J-2.397
N270 X38.358 Y-17.369 Z-0.289 I2.956 J-0.904
N275 X40.817 Y-12.87 Z-0.504 I-0.281 J3.075
N280 X35.728 Y-12.298 Z-0.718 I-2.736 J-1.422
N285 X37.123 Y-17.219 Z-0.933 I2.349 J-1.992
N290 X41.145 Y-14.069 Z-1.147 I0.954 J2.925
N295 X36.713 Y-11.542 Z-1.362 I-3.064 J-0.224
N300 X36.051 Y-16.594 Z-1.576 I1.366 J-2.748
N305 X40.972 Y-15.296 Z-1.791 I2.025 J2.301
N310 X37.912 Y-11.237 Z-2.005 I-2.893 J1.002
N315 X35.317 Y-15.601 Z-2.22 I0.167 J-3.053
N320 X40.332 Y-16.351 Z-2.435 I2.759 J1.309
N325 X39.129 Y-11.431 Z-2.649 I-2.253 J2.056
N330 X35.036 Y-14.402 Z-2.864 I-1.049 J-2.86
N335 X39.33 Y-17.064 Z-3.078 I3.041 J0.111
N340 X40.167 Y-12.088 Z-3.293 I-1.252 J2.769
N345 X35.25 Y-13.195 Z-3.507 I-2.087 J-2.204
N350 X38.132 Y-17.321 Z-3.722 I2.826 J-1.096
N355 X40.858 Y-13.097 Z-3.936 I-0.055 J3.027
N360 X35.923 Y-12.174 Z-4.151 I-2.778 J-1.195
N365 X36.935 Y-17.086 Z-4.365 I2.155 J-2.116
N370 X41.093 Y-14.294 Z-4.58 I1.142 J2.792
N375 X35.06 I-3.016 J0.
N380 X41.093 I3.016 J0.
N385 G1 X41.097 Y-14.066 F1016.
N390 X41.251 Y-13.167
N395 X41.306 Y-13.027
N400 X41.343 Y-12.882
N405 X41.366 Y-12.734
N410 X41.375 Y-12.584
N415 X41.372 Y-12.426
N420 X41.355 Y-12.256
N425 X41.322 Y-12.078
N430 X41.272 Y-11.891
N435 X41.203 Y-11.698
N440 X41.115 Y-11.5
N445 X41.005 Y-11.3
N450 X40.873 Y-11.101
N455 X40.72 Y-10.904
N460 X40.543 Y-10.712
N465 X40.345 Y-10.529
N470 X40.125 Y-10.355
N475 X39.883 Y-10.195
N480 X39.622 Y-10.05
N485 X39.343 Y-9.924
N490 X39.047 Y-9.817
N495 X38.736 Y-9.733
N500 X38.413 Y-9.673
N505 X38.08 Y-9.638
N510 X37.74 Y-9.63
N515 X37.395 Y-9.649
N520 X37.048 Y-9.697
N525 X36.702 Y-9.773
N530 X36.359 Y-9.878
N535 X36.023 Y-10.012
N540 X35.696 Y-10.173
N545 X35.38 Y-10.362
N550 X35.079 Y-10.576
N555 X34.794 Y-10.816
N560 X34.528 Y-11.079
N565 X34.283 Y-11.364
N570 X34.06 Y-11.668
N575 X33.862 Y-11.991
N580 X33.69 Y-12.33
N585 X33.546 Y-12.682
N590 X33.43 Y-13.046
N595 X33.343 Y-13.418
N600 X33.286 Y-13.797
N605 X33.26 Y-14.18
N610 X33.265 Y-14.564
N615 X33.3 Y-14.947
N620 X33.366 Y-15.327
N625 X33.463 Y-15.7
N630 X33.589 Y-16.065
N635 X33.745 Y-16.418
N640 X33.928 Y-16.758
N645 X34.138 Y-17.083
N650 X34.373 Y-17.389
N655 X34.633 Y-17.676
N660 X34.915 Y-17.942
N665 X35.217 Y-18.184
N670 X35.538 Y-18.4
N675 X35.875 Y-18.591
N680 X36.227 Y-18.754
N685 X36.59 Y-18.888
N690 X36.963 Y-18.993
N695 X37.344 Y-19.067
N700 X37.729 Y-19.11
N705 X38.117 Y-19.123
N710 X38.504 Y-19.104
N715 X38.888 Y-19.054
N720 X39.268 Y-18.974
N725 X39.639 Y-18.863
N730 X40.001 Y-18.723
N735 X40.35 Y-18.555
N740 X40.685 Y-18.358
N745 X41.003 Y-18.136
N750 X41.302 Y-17.889
N755 X41.58 Y-17.618
N760 X41.835 Y-17.327
N765 X42.067 Y-17.015
N770 X42.307 Y-16.631
N775 X42.712 Y-15.849
N780 X42.974 Y-15.225
N785 X43.151 Y-14.687
N790 X43.268 Y-14.201
N795 X43.342 Y-13.736
N800 X43.376 Y-13.286
N805 X43.374 Y-12.85
N810 X43.339 Y-12.426
N815 X43.27 Y-12.011
N820 X43.168 Y-11.605
N825 X43.035 Y-11.209
N830 X42.869 Y-10.824
N835 X42.673 Y-10.452
N840 X42.445 Y-10.094
N845 X42.187 Y-9.752
N850 X41.899 Y-9.428
N855 X41.583 Y-9.126
N860 X41.239 Y-8.846
N865 X40.868 Y-8.591
N870 X40.473 Y-8.363
N875 X40.055 Y-8.165
N880 X39.616 Y-7.999
N885 X39.16 Y-7.868
N890 X38.689 Y-7.771
N895 X38.206 Y-7.713
N900 X37.715 Y-7.693
N905 X37.218 Y-7.713
N910 X36.72 Y-7.773
N915 X36.224 Y-7.874
N920 X35.734 Y-8.015
N925 X35.254 Y-8.197
N930 X34.786 Y-8.418
N935 X34.335 Y-8.678
N940 X33.904 Y-8.974
N945 X33.496 Y-9.306
N950 X33.113 Y-9.672
N955 X32.76 Y-10.068
N960 X32.439 Y-10.494
N965 X32.152 Y-10.945
N970 X31.901 Y-11.42
N975 X31.688 Y-11.915
N980 X31.515 Y-12.426
N985 X31.384 Y-12.951
N990 X31.295 Y-13.486
N995 X31.249 Y-14.028
N1000 X31.246 Y-14.572
N1005 X31.288 Y-15.115
N1010 X31.373 Y-15.654
N1015 X31.501 Y-16.185
N1020 X31.671 Y-16.705
N1025 X31.883 Y-17.21
N1030 X32.135 Y-17.696
N1035 X32.425 Y-18.161
N1040 X32.752 Y-18.601
N1045 X33.113 Y-19.014
N1050 X33.507 Y-19.397
N1055 X33.93 Y-19.747
N1060 X34.38 Y-20.062
N1065 X34.854 Y-20.34
N1070 X35.349 Y-20.579
N1075 X35.861 Y-20.778
N1080 X36.388 Y-20.935
N1085 X36.926 Y-21.05
N1090 X37.472 Y-21.12
N1095 X38.021 Y-21.147
N1100 X38.571 Y-21.13
N1105 X39.118 Y-21.068
N1110 X39.658 Y-20.963
N1115 X40.188 Y-20.814
N1120 X40.704 Y-20.624
N1125 X41.204 Y-20.393
N1130 X41.683 Y-20.122
N1135 X42.139 Y-19.814
N1140 X42.579 Y-19.462
N1145 X43.058 Y-19.012
N1150 X43.512 Y-18.51
N1155 X43.939 Y-17.955
N1160 X44.324 Y-17.36
N1165 X44.656 Y-16.746
N1170 X44.93 Y-16.122
N1175 X45.148 Y-15.495
N1180 X45.31 Y-14.867
N1185 X45.42 Y-14.242
N1190 X45.478 Y-13.619
N1195 X45.485 Y-13.001
N1200 X45.444 Y-12.391
N1205 X45.354 Y-11.791
N1210 X45.218 Y-11.202
N1215 X45.035 Y-10.629
N1220 X44.806 Y-10.072
N1225 X44.534 Y-9.536
N1230 X44.219 Y-9.021
N1235 X43.862 Y-8.532
N1240 X43.464 Y-8.07
N1245 X43.028 Y-7.639
N1250 X42.556 Y-7.241
N1255 X42.049 Y-6.88
N1260 X41.51 Y-6.557
N1265 X40.942 Y-6.277
N1270 X40.349 Y-6.042
N1275 X39.734 Y-5.853
N1280 X39.1 Y-5.713
N1285 X38.452 Y-5.623
N1290 X37.794 Y-5.586
N1295 X37.131 Y-5.601
N1300 X36.467 Y-5.671
N1305 X35.806 Y-5.794
N1310 X35.154 Y-5.971
N1315 X34.513 Y-6.201
N1320 X33.89 Y-6.483
N1325 X33.288 Y-6.816
N1330 X32.712 Y-7.198
N1335 X32.166 Y-7.627
N1340 X31.655 Y-8.101
N1345 X31.181 Y-8.616
N1350 X30.748 Y-9.17
N1355 X30.36 Y-9.758
N1360 X30.019 Y-10.378
N1365 X29.728 Y-11.024
N1370 X29.49 Y-11.694
N1375 X29.306 Y-12.382
N1380 X29.177 Y-13.084
N1385 X29.105 Y-13.795
N1390 X29.09 Y-14.511
N1395 X29.133 Y-15.226
N1400 X29.233 Y-15.937
N1405 X29.39 Y-16.638
N1410 X29.603 Y-17.325
N1415 X29.87 Y-17.994
N1420 X30.191 Y-18.639
N1425 X30.563 Y-19.256
N1430 X30.983 Y-19.842
N1435 X31.449 Y-20.393
N1440 X31.958 Y-20.905
N1445 X32.507 Y-21.374
N1450 X33.091 Y-21.799
N1455 X33.709 Y-22.174
N1460 X34.354 Y-22.5
N1465 X35.024 Y-22.772
N1470 X35.713 Y-22.99
N1475 X36.418 Y-23.152
N1480 X36.527 Y-23.168
N1485 X36.626 Y-23.179
N1490 X36.725 Y-23.183
N1495 X36.825 Y-23.181
N1500 X37.456 Y-23.145
N1505 X37.663 Y-23.135
N1510 X38.283
N1515 X38.859
N1520 X39.49 Y-23.084
N1525 X40.128 Y-22.98
N1530 X40.767 Y-22.823
N1535 X41.404 Y-22.611
N1540 X42.035 Y-22.343
N1545 X42.672 Y-22.01
N1550 X43.305 Y-21.611
N1555 X43.928 Y-21.144
N1560 X44.531 Y-20.613
N1565 X45.1 Y-20.023
N1570 X45.625 Y-19.382
N1575 X46.099 Y-18.699
N1580 X46.517 Y-17.98
N1585 X46.874 Y-17.234
N1590 X46.9 Y-17.165
N1595 X46.954 Y-16.993
N1600 X46.987 Y-16.816
N1605 X46.998 Y-16.635
N1610 Y-11.539
N1615 X46.969 Y-10.968
N1620 X46.902 Y-10.453
N1625 X46.79 Y-9.932
N1630 X46.625 Y-9.381
N1635 X46.402 Y-8.808
N1640 X46.12 Y-8.226
N1645 X45.782 Y-7.652
N1650 X45.39 Y-7.093
N1655 X44.94 Y-6.552
N1660 X44.433 Y-6.032
N1665 X44.188 Y-5.818
N1670 X43.973 Y-5.662
N1675 X43.734 Y-5.547
N1680 X43.478 Y-5.477
N1685 X43.214 Y-5.453
N1690 G3 X42.601 Y-6.109 Z-4.38 I0.022 J-0.635
N1695 X42.686 Y-6.405 I0.635 J0.022
N1700 G1 X45.813 Y-11.833
N1705 G3 X46.342 Y-12.151 I0.55 J0.317
N1710 X46.998 Y-11.539 Z-4.58 I0.022 J0.635
N1715 G1 Y-7.812
N1720 X46.982 Y-7.496
N1725 X46.944 Y-7.204
N1730 X46.871 Y-6.861
N1735 X46.767 Y-6.516
N1740 X46.725 Y-6.407
N1745 X46.568 Y-6.11
N1750 X46.349 Y-5.856
N1755 X46.078 Y-5.658
N1760 X45.77 Y-5.526
N1765 X45.44 Y-5.466
N1770 G3 X44.786 Y-6.082 Z-4.38 I-0.019 J-0.635
N1775 X44.866 Y-6.411 I0.635 J-0.019
N1780 G1 X45.809 Y-8.099
N1785 G3 X46.342 Y-8.424 I0.554 J0.309
N1790 X46.998 Y-7.812 Z-4.58 I0.022 J0.635
N1795 G1 Y-7.605
N1800 X46.997 Y-7.398
N1805 X46.992 Y-6.984
N1810 X46.988 Y-6.777
N1815 X46.977 Y-6.688
N1820 X46.934 Y-6.363
N1825 X46.905 Y-6.259
N1830 X46.862 Y-6.156
N1835 X46.824 Y-6.07
N1840 X46.77 Y-5.985
N1845 X46.667 Y-5.852
N1850 X46.615 Y-5.799
N1855 X46.563 Y-5.755
N1860 X46.451 Y-5.67
N1865 X46.356 Y-5.615
N1870 X46.156 Y-5.534
N1875 X46.149 Y-5.532
N1880 X46.046 Y-5.511
N1885 X45.942 Y-5.499
N1890 X45.321 Y-5.459
N1895 X45.114 Y-5.453
N1900 X33.523
N1905 X33.238 Y-5.467
N1910 X32.925 Y-5.508
N1915 X32.556 Y-5.587
N1920 X32.186 Y-5.698
N1925 X31.765 Y-5.862
N1930 X31.339 Y-6.069
N1935 X30.889 Y-6.334
N1940 X30.411 Y-6.669
N1945 X29.95 Y-7.052
N1950 X29.488 Y-7.503
N1955 X29.313 Y-7.703
N1960 X29.157 Y-7.918
N1965 X29.042 Y-8.157
N1970 X28.972 Y-8.413
N1975 X28.948 Y-8.677
N1980 G3 X29.604 Y-9.29 Z-4.38 I0.635 J0.022
N1985 X29.931 Y-9.186 I-0.022 J0.635
N1990 G1 X33.848 Y-6.619
N1995 G3 X34.135 Y-6.109 I-0.348 J0.531
N2000 X33.523 Y-5.453 Z-4.58 I-0.635 J0.022
N2005 G1 X30.832
N2010 X30.625 Y-5.459
N2015 X30.209 Y-5.506
N2020 X30.15 Y-5.518
N2025 X29.831 Y-5.62
N2030 X29.543 Y-5.79
N2035 X29.3 Y-6.021
N2040 X29.116 Y-6.3
N2045 X28.999 Y-6.613
N2050 X28.955 Y-6.945
N2055 G3 X29.6 Y-7.569 Z-4.38 I0.635 J0.011
N2060 X29.991 Y-7.426 I-0.01 J0.635
N2065 G1 X31.021 Y-6.586
N2070 G3 X31.255 Y-6.098 I-0.402 J0.492
N2075 X30.625 Y-5.459 Z-4.58 I-0.635 J0.004
N2080 G1 X30.004 Y-5.499
N2085 X29.9 Y-5.511
N2090 X29.797 Y-5.532
N2095 X29.79 Y-5.534
N2100 X29.59 Y-5.615
N2105 X29.495 Y-5.67
N2110 X29.383 Y-5.755
N2115 X29.331 Y-5.799
N2120 X29.279 Y-5.852
N2125 X29.176 Y-5.985
N2130 X29.122 Y-6.07
N2135 X29.084 Y-6.156
N2140 X29.041 Y-6.259
N2145 X29.012 Y-6.363
N2150 X28.969 Y-6.688
N2155 X28.958 Y-6.777
N2160 X28.954 Y-6.984
N2165 X28.949 Y-7.398
N2170 X28.948 Y-7.605
N2175 Y-18.578
N2180 X28.966 Y-18.941
N2185 X29.012 Y-19.288
N2190 X29.088 Y-19.646
N2195 X29.211 Y-20.056
N2200 X29.371 Y-20.467
N2205 X29.596 Y-20.93
N2210 X29.868 Y-21.392
N2215 X30.204 Y-21.871
N2220 X30.616 Y-22.367
N2225 X31.095 Y-22.858
N2230 X31.519 Y-23.228
N2235 X31.788 Y-23.414
N2240 X32.092 Y-23.537
N2245 X32.415 Y-23.591
N2250 X32.742 Y-23.572
N2255 G3 X33.235 Y-22.821 Z-4.38 I-0.129 J0.622
N2260 X33.135 Y-22.587 I-0.622 J-0.128
N2265 G1 X30.104 Y-18.237
N2270 G3 X29.604 Y-17.966 I-0.521 J-0.363
N2275 X28.948 Y-18.578 Z-4.58 I-0.022 J-0.635
N2280 G1 Y-21.477
N2285 X28.965 Y-21.824
N2290 X29.001 Y-22.096
N2295 X29.063 Y-22.384
N2300 X29.156 Y-22.696
N2305 X29.276 Y-23.004
N2310 X29.311 Y-23.075
N2315 X29.472 Y-23.336
N2320 X29.684 Y-23.558
N2325 X29.938 Y-23.731
N2330 X30.221 Y-23.849
N2335 X30.523 Y-23.905
N2340 X30.829 Y-23.898
N2345 G3 X31.355 Y-23.171 Z-4.38 I-0.102 J0.627
N2350 X31.261 Y-22.927 I-0.627 J-0.101
N2355 G1 X30.116 Y-21.154
N2360 G3 X29.604 Y-20.864 I-0.533 J-0.345
N2365 X28.948 Y-21.477 Z-4.58 I-0.022 J-0.635
N2370 G1 Y-21.891
N2375 X28.95 Y-22.098
N2380 X28.961 Y-22.719
N2385 X28.969 Y-22.788
N2390 X28.987 Y-22.926
N2395 X29.018 Y-23.133
N2400 X29.093 Y-23.34
N2405 X29.129 Y-23.412
N2410 X29.176 Y-23.484
N2415 X29.222 Y-23.547
N2420 X29.289 Y-23.63
N2425 X29.383 Y-23.714
N2430 X29.433 Y-23.754
N2435 X29.511 Y-23.81
N2440 X29.59 Y-23.853
N2445 X29.797 Y-23.936
N2450 X29.925 Y-23.961
N2455 X30.004 Y-23.973
N2460 X30.107 Y-23.978
N2465 X30.211 Y-23.969
N2470 X30.418 Y-23.949
N2475 X30.625 Y-23.924
N2480 X30.832 Y-23.898
N2485 X33.523 Y-23.438
N2490 X33.73 Y-23.406
N2495 X34.17 Y-23.34
N2500 X34.351 Y-23.321
N2505 X34.972 Y-23.286
N2510 X36.825 Y-23.181
N2515 X36.923 Y-23.164
N2520 G2 X37.178 Y-23.111 I0.735 J-2.896
N2525 G1 X37.261 Y-23.103
N2530 X37.502 Y-23.096
N2535 X37.878 Y-23.085
N2540 X37.961 Y-23.088
N2545 G2 X38.219 Y-23.126 I-0.304 J-2.973
N2550 G1 X38.283 Y-23.135
N2555 X38.697 Y-23.157
N2560 X41.388 Y-23.309
N2565 X41.595 Y-23.321
N2570 X41.776 Y-23.34
N2575 X41.802 Y-23.344
N2580 X42.213 Y-23.384
N2585 X42.495 Y-23.389
N2590 X42.825 Y-23.369
N2595 X43.165 Y-23.32
N2600 X43.569 Y-23.228
N2605 X43.975 Y-23.101
N2610 X44.447 Y-22.911
N2615 X44.916 Y-22.676
N2620 X45.432 Y-22.364
N2625 X45.974 Y-21.972
N2630 X46.497 Y-21.528
N2635 X46.564 Y-21.46
N2640 X46.748 Y-21.236
N2645 X46.885 Y-20.979
N2650 X46.97 Y-20.702
N2655 X46.998 Y-20.413
N2660 G3 X46.342 Y-19.8 Z-4.38 I-0.635 J-0.022
N2665 X46.073 Y-19.87 I0.022 J-0.635
N2670 G1 X41.628 Y-22.155
N2675 G3 X41.294 Y-22.604 I0.29 J-0.565
N2680 X41.802 Y-23.344 Z-4.58 I0.624 J-0.115
N2685 G1 X42.216 Y-23.406
N2690 X42.423 Y-23.438
N2695 X44.493 Y-23.792
N2700 X44.711 Y-23.818
N2705 X44.964 Y-23.828
N2710 X45.244 Y-23.816
N2715 X45.564 Y-23.777
N2720 X45.867 Y-23.715
N2725 X45.924 Y-23.699
N2730 X46.214 Y-23.58
N2735 X46.472 Y-23.403
N2740 X46.688 Y-23.176
N2745 X46.851 Y-22.909
N2750 X46.954 Y-22.613
N2755 X46.993 Y-22.302
N2760 G3 X46.347 Y-21.678 Z-4.38 I-0.635 J-0.011
N2765 X46.076 Y-21.744 I0.01 J-0.635
N2770 G1 X44.341 Y-22.601
N2775 G3 X44. Y-23.042 I0.281 J-0.569
N2780 X44.493 Y-23.792 Z-4.58 I0.622 J-0.128
N2785 G1 X45.114 Y-23.898
N2790 X45.321 Y-23.924
N2795 X45.528 Y-23.949
N2800 X45.735 Y-23.969
N2805 X45.839 Y-23.978
N2810 X45.942 Y-23.973
N2815 X46.021 Y-23.961
N2820 X46.149 Y-23.936
N2825 X46.356 Y-23.853
N2830 X46.435 Y-23.81
N2835 X46.513 Y-23.754
N2840 X46.563 Y-23.714
N2845 X46.657 Y-23.63
N2850 X46.724 Y-23.547
N2855 X46.77 Y-23.484
N2860 X46.817 Y-23.412
N2865 X46.853 Y-23.34
N2870 X46.928 Y-23.133
N2875 X46.959 Y-22.926
N2880 X46.977 Y-22.788
N2885 X46.985 Y-22.719
N2890 X46.996 Y-22.098
N2895 X46.998 Y-21.891
N2900 Y-16.635
N2905 G3 X46.55 Y-16.051 I-0.635 J-0.022
N2910 G1 X46.456 Y-16.021 Z-4.572
N2915 X46.363 Y-15.993 Z-4.549
N2920 X46.275 Y-15.966 Z-4.511
N2925 X46.194 Y-15.941 Z-4.459
N2930 X46.121 Y-15.918 Z-4.394
N2935 X46.06 Y-15.899 Z-4.318
N2940 X46.01 Y-15.884 Z-4.233
N2945 X45.973 Y-15.873 Z-4.141
N2950 X45.951 Y-15.866 Z-4.044
N2955 X45.944 Y-15.864 Z-3.945
N2960 G0 Z15.
N2965 G1 X10.794 Y-21.889 F5000.
N2970 G0 Z5.
N2975 Z2.5
N2980 G3 X11.301 Y-27.237 Z2.277 I1.97 J-2.511 F338.67
N2985 X15.946 Y-24.553 Z2.054 I1.461 J2.833
N2990 X11.576 Y-21.451 Z1.831 I-3.18 J0.149
N2995 X10.577 Y-26.708 Z1.608 I1.188 J-2.95
N3000 X15.767 Y-25.43 Z1.385 I2.185 J2.305
N3005 X12.447 Y-21.248 Z1.162 I-3.002 J1.025
N3010 X10.031 Y-26.002 Z0.939 I0.317 J-3.152
N3015 X15.352 Y-26.219 Z0.717 I2.731 J1.599
N3020 X13.337 Y-21.297 Z0.494 I-2.588 J1.814
N3025 X9.705 Y-25.174 Z0.271 I-0.572 J-3.104
N3030 X14.736 Y-26.86 Z0.048 I3.057 J0.772
N3035 X14.175 Y-21.59 Z-0.175 I-1.972 J2.455
N3040 X9.623 Y-24.291 Z-0.398 I-1.409 J-2.812
N3045 X13.969 Y-27.301 Z-0.621 I3.139 J-0.11
N3050 X14.895 Y-22.103 Z-0.844 I-1.206 J2.896
N3055 X9.789 Y-23.424 Z-1.067 I-2.129 J-2.299
N3060 X13.112 Y-27.511 Z-1.29 I2.973 J-0.977
N3065 X15.441 Y-22.794 Z-1.513 I-0.349 J3.106
N3070 X10.189 Y-22.641 Z-1.736 I-2.675 J-1.609
N3075 X12.234 Y-27.473 Z-1.959 I2.573 J-1.76
N3080 X15.772 Y-23.607 Z-2.182 I0.528 J3.069
N3085 X10.79 Y-22.002 Z-2.405 I-3.006 J-0.797
N3090 X11.405 Y-27.193 Z-2.628 I1.974 J-2.398
N3095 X15.863 Y-24.476 Z-2.85 I1.357 J2.789
N3100 X11.542 Y-21.558 Z-3.073 I-3.097 J0.072
N3105 X10.689 Y-26.695 Z-3.296 I1.222 J-2.843
N3110 X15.709 Y-25.334 Z-3.519 I2.073 J2.292
N3115 X12.384 Y-21.341 Z-3.742 I-2.943 J0.929
N3120 X10.142 Y-26.02 Z-3.965 I0.38 J-3.059
N3125 X15.323 Y-26.111 Z-4.188 I2.62 J1.618
N3130 X13.251 Y-21.369 Z-4.411 I-2.558 J1.706
N3135 X9.806 Y-25.222 Z-4.634 I-0.485 J-3.032
N3140 X14.738 Y-26.747 Z-4.857 I2.955 J0.82
N3145 X14.072 Y-21.635 Z-5.08 I-1.974 J2.342
N3150 X9.707 Y-24.366 Z-5.303 I-1.306 J-2.766
N3155 X14.001 Y-27.194 Z-5.526 I3.055 J-0.036
N3160 X14.784 Y-22.118 Z-5.749 I-1.238 J2.789
N3165 X9.849 Y-23.519 Z-5.972 I-2.018 J-2.284
N3170 X13.173 Y-27.417 Z-6.194 I2.913 J-0.882
N3175 X15.33 Y-22.778 Z-6.417 I-0.41 J3.012
N3180 X10.221 Y-22.748 Z-6.64 I-2.564 J-1.625
N3185 X12.319 Y-27.4 Z-6.863 I2.542 J-1.653
N3190 X15.67 Y-23.56 Z-7.086 I0.444 J2.996
N3195 X10.79 Y-22.113 Z-7.309 I-2.904 J-0.843
N3200 X11.506 Y-27.146 Z-7.532 I1.973 J-2.287
N3205 X15.778 Y-24.404 Z-7.755 I1.256 J2.743
N3210 X9.745 I-3.017 J0.
N3215 X15.778 I3.017 J0.
N3220 G1 X15.782 Y-24.176 F1016.
N3225 X15.937 Y-23.277
N3230 X15.991 Y-23.137
N3235 X16.029 Y-22.992
N3240 X16.051 Y-22.844
N3245 X16.061 Y-22.694
N3250 X16.057 Y-22.536
N3255 X16.04 Y-22.367
N3260 X16.008 Y-22.188
N3265 X15.958 Y-22.001
N3270 X15.889 Y-21.808
N3275 X15.8 Y-21.61
N3280 X15.69 Y-21.411
N3285 X15.559 Y-21.211
N3290 X15.405 Y-21.014
N3295 X15.229 Y-20.823
N3300 X15.03 Y-20.639
N3305 X14.81 Y-20.465
N3310 X14.569 Y-20.305
N3315 X14.308 Y-20.161
N3320 X14.028 Y-20.034
N3325 X13.732 Y-19.927
N3330 X13.422 Y-19.843
N3335 X13.099 Y-19.783
N3340 X12.766 Y-19.748
N3345 X12.426 Y-19.74
N3350 X12.081 Y-19.759
N3355 X11.734 Y-19.807
N3360 X11.387 Y-19.884
N3365 X11.045 Y-19.989
N3370 X10.709 Y-20.122
N3375 X10.381 Y-20.283
N3380 X10.066 Y-20.472
N3385 X9.764 Y-20.687
N3390 X9.48 Y-20.926
N3395 X9.213 Y-21.189
N3400 X8.968 Y-21.474
N3405 X8.746 Y-21.779
N3410 X8.548 Y-22.101
N3415 X8.376 Y-22.44
N3420 X8.231 Y-22.792
N3425 X8.115 Y-23.156
N3430 X8.028 Y-23.528
N3435 X7.972 Y-23.907
N3440 X7.945 Y-24.29
N3445 X7.95 Y-24.674
N3450 X7.986 Y-25.058
N3455 X8.052 Y-25.437
N3460 X8.148 Y-25.81
N3465 X8.275 Y-26.175
N3470 X8.43 Y-26.528
N3475 X8.613 Y-26.869
N3480 X8.823 Y-27.193
N3485 X9.059 Y-27.5
N3490 X9.318 Y-27.787
N3495 X9.6 Y-28.052
N3500 X9.902 Y-28.294
N3505 X10.223 Y-28.511
N3510 X10.561 Y-28.701
N3515 X10.912 Y-28.864
N3520 X11.276 Y-28.998
N3525 X11.649 Y-29.103
N3530 X12.029 Y-29.177
N3535 X12.414 Y-29.221
N3540 X12.802 Y-29.233
N3545 X13.189 Y-29.215
N3550 X13.574 Y-29.165
N3555 X13.953 Y-29.084
N3560 X14.325 Y-28.974
N3565 X14.687 Y-28.834
N3570 X15.036 Y-28.665
N3575 X15.37 Y-28.469
N3580 X15.688 Y-28.246
N3585 X15.987 Y-27.999
N3590 X16.265 Y-27.729
N3595 X16.521 Y-27.437
N3600 X16.752 Y-27.126
N3605 X16.992 Y-26.741
N3610 X17.397 Y-25.96
N3615 X17.66 Y-25.335
N3620 X17.836 Y-24.798
N3625 X17.954 Y-24.311
N3630 X18.027 Y-23.847
N3635 X18.062 Y-23.397
N3640 X18.06 Y-22.961
N3645 X18.024 Y-22.536
N3650 X17.955 Y-22.121
N3655 X17.854 Y-21.716
N3660 X17.72 Y-21.32
N3665 X17.555 Y-20.935
N3670 X17.358 Y-20.562
N3675 X17.13 Y-20.204
N3680 X16.872 Y-19.862
N3685 X16.584 Y-19.539
N3690 X16.268 Y-19.236
N3695 X15.924 Y-18.956
N3700 X15.554 Y-18.701
N3705 X15.159 Y-18.473
N3710 X14.741 Y-18.276
N3715 X14.302 Y-18.11
N3720 X13.846 Y-17.978
N3725 X13.375 Y-17.882
N3730 X12.892 Y-17.823
N3735 X12.4 Y-17.803
N3740 X11.903 Y-17.823
N3745 X11.405 Y-17.883
N3750 X10.909 Y-17.984
N3755 X10.42 Y-18.126
N3760 X9.939 Y-18.307
N3765 X9.472 Y-18.528
N3770 X9.021 Y-18.788
N3775 X8.589 Y-19.084
N3780 X8.181 Y-19.416
N3785 X7.799 Y-19.782
N3790 X7.446 Y-20.178
N3795 X7.124 Y-20.604
N3800 X6.837 Y-21.055
N3805 X6.586 Y-21.53
N3810 X6.373 Y-22.025
N3815 X6.201 Y-22.536
N3820 X6.069 Y-23.061
N3825 X5.98 Y-23.596
N3830 X5.934 Y-24.138
N3835 X5.932 Y-24.682
N3840 X5.973 Y-25.225
N3845 X6.058 Y-25.764
N3850 X6.186 Y-26.296
N3855 X6.357 Y-26.815
N3860 X6.569 Y-27.32
N3865 X6.82 Y-27.806
N3870 X7.111 Y-28.271
N3875 X7.438 Y-28.712
N3880 X7.799 Y-29.124
N3885 X8.192 Y-29.507
N3890 X8.615 Y-29.857
N3895 X9.065 Y-30.173
N3900 X9.539 Y-30.451
N3905 X10.034 Y-30.69
N3910 X10.547 Y-30.889
N3915 X11.074 Y-31.046
N3920 X11.612 Y-31.16
N3925 X12.157 Y-31.231
N3930 X12.707 Y-31.257
N3935 X13.256 Y-31.24
N3940 X13.803 Y-31.178
N3945 X14.343 Y-31.073
N3950 X14.873 Y-30.925
N3955 X15.39 Y-30.735
N3960 X15.889 Y-30.503
N3965 X16.369 Y-30.233
N3970 X16.825 Y-29.925
N3975 X17.265 Y-29.573
N3980 X17.743 Y-29.123
N3985 X18.198 Y-28.621
N3990 X18.624 Y-28.065
N3995 X19.01 Y-27.47
N4000 X19.341 Y-26.856
N4005 X19.616 Y-26.232
N4010 X19.833 Y-25.605
N4015 X19.996 Y-24.978
N4020 X20.052 Y-24.657
N4025 X20.064 Y-24.572
N4030 X20.072 Y-24.487
N4035 X20.074 Y-24.401
N4040 Y-23.157
N4045 X20.038 Y-22.43
N4050 X19.964 Y-21.872
N4055 X19.846 Y-21.317
N4060 X19.681 Y-20.768
N4065 X19.472 Y-20.23
N4070 X19.218 Y-19.707
N4075 X18.92 Y-19.201
N4080 X18.58 Y-18.716
N4085 X18.198 Y-18.256
N4090 X17.776 Y-17.824
N4095 X17.317 Y-17.423
N4100 X16.822 Y-17.057
N4105 X16.295 Y-16.729
N4110 X15.738 Y-16.442
N4115 X15.154 Y-16.198
N4120 X14.547 Y-16.
N4125 X13.921 Y-15.849
N4130 X13.279 Y-15.749
N4135 X12.626 Y-15.7
N4140 X11.966 Y-15.704
N4145 X11.304 Y-15.761
N4150 X10.642 Y-15.872
N4155 X9.988 Y-16.037
N4160 X9.344 Y-16.256
N4165 X8.717 Y-16.527
N4170 X8.109 Y-16.849
N4175 X7.527 Y-17.22
N4180 X6.974 Y-17.64
N4185 X6.454 Y-18.104
N4190 X5.971 Y-18.61
N4195 X5.784 Y-18.841
N4200 X5.642 Y-19.05
N4205 X5.538 Y-19.279
N4210 X5.474 Y-19.523
N4215 X5.453 Y-19.774
N4220 Y-27.508
N4225 X5.471 Y-27.861
N4230 X5.513 Y-28.184
N4235 X5.584 Y-28.513
N4240 X5.692 Y-28.875
N4245 X5.841 Y-29.257
N4250 X6.026 Y-29.639
N4255 X6.265 Y-30.044
N4260 X6.554 Y-30.457
N4265 X6.884 Y-30.854
N4270 X7.266 Y-31.245
N4275 X7.702 Y-31.626
N4280 X8.188 Y-31.986
N4285 X8.72 Y-32.317
N4290 X9.29 Y-32.611
N4295 X9.893 Y-32.863
N4300 X10.524 Y-33.069
N4305 X11.181 Y-33.226
N4310 X11.857 Y-33.332
N4315 X12.549 Y-33.384
N4320 X13.04 Y-33.381
N4325 X13.336 Y-33.349
N4330 X13.619 Y-33.259
N4335 X13.879 Y-33.115
N4340 X14.104 Y-32.921
N4345 X14.327 Y-32.687
N4350 X14.457 Y-32.562
N4355 X14.665 Y-32.371
N4360 X14.774 Y-32.273
N4365 X16.736 Y-30.57
N4370 X17.151 Y-30.257
N4375 X17.358 Y-30.101
N4380 X17.565 Y-29.951
N4385 X18.667 Y-29.165
N4390 X18.808 Y-29.064
N4395 X19.43 Y-28.599
N4400 X19.501 Y-28.544
N4405 X19.637 Y-28.43
N4410 X19.74 Y-28.337
N4415 X19.844 Y-28.201
N4420 X19.892 Y-28.129
N4425 X19.942 Y-28.026
N4430 X19.983 Y-27.922
N4435 X20.012 Y-27.819
N4440 X20.028 Y-27.715
N4445 X20.054 Y-27.508
N4450 X20.066 Y-27.301
N4455 X20.074 Y-26.679
N4460 Y-24.401
N4465 X20.063 Y-24.302
N4470 X20.042 Y-24.185
N4475 X20.027 Y-24.066
N4480 X20.024 Y-24.
N4485 Y-23.939
N4490 Y-23.559
N4495 X20.027 Y-23.493
N4500 X20.042 Y-23.374
N4505 X20.063 Y-23.256
N4510 X20.074 Y-23.157
N4515 Y-19.221
N4520 X20.064 Y-19.02
N4525 X20.026 Y-18.729
N4530 X19.962 Y-18.432
N4535 X19.86 Y-18.092
N4540 X19.728 Y-17.752
N4545 X19.544 Y-17.373
N4550 X19.321 Y-16.994
N4555 X19.046 Y-16.602
N4560 X18.707 Y-16.194
N4565 X18.321 Y-15.798
N4570 X17.883 Y-15.416
N4575 X17.379 Y-15.043
N4580 X16.815 Y-14.692
N4585 X16.197 Y-14.373
N4590 X15.539 Y-14.098
N4595 X14.845 Y-13.872
N4600 X14.113 Y-13.696
N4605 X13.348 Y-13.577
N4610 X12.557 Y-13.518
N4615 X11.749 Y-13.522
N4620 X10.932 Y-13.593
N4625 X10.113 Y-13.73
N4630 X9.299 Y-13.935
N4635 X8.496 Y-14.208
N4640 X7.713 Y-14.546
N4645 X6.954 Y-14.949
N4650 X6.225 Y-15.414
N4655 X6.04 Y-15.554
N4660 X5.838 Y-15.738
N4665 X5.674 Y-15.956
N4670 X5.553 Y-16.201
N4675 X5.478 Y-16.463
N4680 X5.453 Y-16.735
N4685 Y-19.774
N4690 G3 X6.109 Y-20.387 Z-7.555 I0.635 J0.022
N4695 G1 X6.114
N4700 X19.418 Y-19.835
N4705 X19.466 Y-19.833 Z-7.565
N4710 G3 X20.074 Y-19.221 Z-7.755 I-0.026 J0.634
N4715 G1 Y-16.735
N4720 X20.061 Y-16.466
N4725 X20.029 Y-16.224
N4730 X19.973 Y-15.965
N4735 X19.889 Y-15.682
N4740 X19.77 Y-15.378
N4745 X19.614 Y-15.056
N4750 X19.414 Y-14.717
N4755 X19.161 Y-14.356
N4760 X18.865 Y-13.999
N4765 X18.492 Y-13.617
N4770 X18.076 Y-13.254
N4775 X17.59 Y-12.895
N4780 X17.022 Y-12.542
N4785 X16.389 Y-12.215
N4790 X15.714 Y-11.933
N4795 X14.965 Y-11.688
N4800 X14.15 Y-11.493
N4805 X13.281 Y-11.357
N4810 X12.372 Y-11.289
N4815 X11.46 Y-11.294
N4820 X10.551 Y-11.37
N4825 X9.651 Y-11.514
N4830 X8.764 Y-11.726
N4835 X7.896 Y-12.004
N4840 X7.05 Y-12.344
N4845 X6.401 Y-12.661
N4850 X6.179 Y-12.793
N4855 X5.933 Y-12.976
N4860 X5.73 Y-13.205
N4865 X5.578 Y-13.471
N4870 X5.485 Y-13.763
N4875 X5.453 Y-14.068
N4880 Y-16.735
N4885 G3 X6.088 Y-17.348 Z-7.559 I0.635 J0.022
N4890 G1 X6.109 Z-7.555
N4895 X19.418
N4900 X19.439 Z-7.559
N4905 G3 X20.074 Y-16.735 Z-7.755 I0. J0.635
N4910 G1 Y-14.342
N4915 X20.064 Y-14.139
N4920 X20.033 Y-13.906
N4925 X19.982 Y-13.667
N4930 X19.899 Y-13.389
N4935 X19.791 Y-13.111
N4940 X19.636 Y-12.792
N4945 X19.451 Y-12.478
N4950 X19.203 Y-12.124
N4955 X18.919 Y-11.783
N4960 X18.562 Y-11.417
N4965 X18.146 Y-11.054
N4970 X17.669 Y-10.701
N4975 X17.094 Y-10.343
N4980 X16.458 Y-10.015
N4985 X15.754 Y-9.721
N4990 X14.95 Y-9.458
N4995 X14.066 Y-9.246
N5000 X13.165 Y-9.106
N5005 X12.256 Y-9.033
N5010 X11.344 Y-9.028
N5015 X10.434 Y-9.087
N5020 X9.531 Y-9.208
N5025 X8.637 Y-9.389
N5030 X7.756 Y-9.625
N5035 X6.995 Y-9.886
N5040 X6.462 Y-10.118
N5045 X6.236 Y-10.239
N5050 X5.972 Y-10.419
N5055 X5.753 Y-10.652
N5060 X5.589 Y-10.926
N5065 X5.487 Y-11.228
N5070 X5.453 Y-11.546
N5075 Y-14.068
N5080 G3 X6.075 Y-14.68 Z-7.562 I0.635 J0.022
N5085 G1 X6.109 Y-14.681 Z-7.555
N5090 X19.418 Y-14.955
N5095 X19.426 Z-7.557
N5100 G3 X20.074 Y-14.342 Z-7.755 I0.013 J0.635
N5105 G1 Y-12.177
N5110 X20.059 Y-11.873
N5115 X20.03 Y-11.651
N5120 X19.979 Y-11.412
N5125 X19.898 Y-11.144
N5130 X19.791 Y-10.869
N5135 X19.639 Y-10.556
N5140 X19.457 Y-10.246
N5145 X19.213 Y-9.899
N5150 X18.932 Y-9.56
N5155 X18.578 Y-9.198
N5160 X18.162 Y-8.835
N5165 X17.68 Y-8.478
N5170 X17.089 Y-8.11
N5175 X16.452 Y-7.781
N5180 X15.714 Y-7.473
N5185 X14.876 Y-7.199
N5190 X13.989 Y-6.987
N5195 X13.089 Y-6.842
N5200 X12.18 Y-6.762
N5205 X11.269 Y-6.744
N5210 X10.358 Y-6.786
N5215 X9.451 Y-6.883
N5220 X9.41 Y-6.89
N5225 X9.132 Y-6.966
N5230 X8.873 Y-7.094
N5235 X8.645 Y-7.27
N5240 X8.454 Y-7.487
N5245 X8.359 Y-7.619
N5250 X8.242 Y-7.769
N5255 X8.001 Y-8.034
N5260 X7.77 Y-8.241
N5265 X7.62 Y-8.36
N5270 X6.999 Y-8.804
N5275 X6.792 Y-8.95
N5280 X6.584 Y-9.091
N5285 X6.377 Y-9.232
N5290 X5.963 Y-9.505
N5295 X5.863 Y-9.581
N5300 X5.756 Y-9.699
N5305 X5.677 Y-9.798
N5310 X5.622 Y-9.898
N5315 X5.548 Y-10.069
N5320 X5.537 Y-10.105
N5325 X5.503 Y-10.312
N5330 X5.477 Y-10.52
N5335 X5.462 Y-10.727
N5340 X5.453 Y-10.934
N5345 Y-11.546
N5350 G3 X6.058 Y-12.158 Z-7.565 I0.635 J0.022
N5355 G1 X6.109 Y-12.161 Z-7.555
N5360 X19.409 Y-12.789
N5365 X19.418
N5370 G3 X20.074 Y-12.177 Z-7.755 I0.022 J0.635
N5375 G1 Y-9.898
N5380 X20.061 Y-9.641
N5385 X20.032 Y-9.422
N5390 X19.981 Y-9.183
N5395 X19.901 Y-8.915
N5400 X19.794 Y-8.64
N5405 X19.642 Y-8.327
N5410 X19.459 Y-8.016
N5415 X19.215 Y-7.668
N5420 X18.933 Y-7.329
N5425 X18.574 Y-6.961
N5430 X18.159 Y-6.599
N5435 X17.664 Y-6.233
N5440 X17.065 Y-5.86
N5445 X16.596 Y-5.618
N5450 X16.379 Y-5.527
N5455 X16.151 Y-5.472
N5460 X15.916 Y-5.453
N5465 G3 X15.304 Y-6.109 Z-7.555 I0.022 J-0.635
N5470 X15.472 Y-6.519 I0.635 J0.022
N5475 G1 X18.973 Y-10.307
N5480 G3 X19.418 Y-10.511 I0.466 J0.431
N5485 X20.074 Y-9.898 Z-7.755 I0.022 J0.635
N5490 G1 Y-7.619
N5495 X20.062 Y-7.402
N5500 X20.033 Y-7.181
N5505 X19.981 Y-6.941
N5510 X19.899 Y-6.671
N5515 X19.79 Y-6.394
N5520 X19.737 Y-6.285
N5525 X19.566 Y-6.015
N5530 X19.342 Y-5.788
N5535 X19.074 Y-5.614
N5540 X18.776 Y-5.501
N5545 X18.46 Y-5.455
N5550 G3 X17.824 Y-6.089 Z-7.555 I-0.001 J-0.635
N5555 X17.927 Y-6.437 I0.635 J-0.002
N5560 G1 X18.907 Y-7.943
N5565 G3 X19.418 Y-8.232 I0.532 J0.346
N5570 X20.074 Y-7.619 Z-7.755 I0.022 J0.635
N5575 G1 X20.073 Y-7.412
N5580 X20.058 Y-6.79
N5585 X20.051 Y-6.673
N5590 X20.012 Y-6.376
N5595 X19.986 Y-6.273
N5600 X19.944 Y-6.169
N5605 X19.903 Y-6.076
N5610 X19.844 Y-5.982
N5615 X19.829 Y-5.962
N5620 X19.748 Y-5.858
N5625 X19.693 Y-5.8
N5630 X19.637 Y-5.753
N5635 X19.533 Y-5.674
N5640 X19.43 Y-5.614
N5645 X19.271 Y-5.547
N5650 X19.223 Y-5.532
N5655 X19.016 Y-5.497
N5660 X18.808 Y-5.47
N5665 X18.601 Y-5.461
N5670 X18.394 Y-5.453
N5675 X10.935
N5680 X10.728 Y-5.461
N5685 X10.521 Y-5.478
N5690 X10.314 Y-5.503
N5695 X10.107 Y-5.537
N5700 X10.073 Y-5.547
N5705 X9.899 Y-5.621
N5710 X9.8 Y-5.676
N5715 X9.692 Y-5.761
N5720 X9.583 Y-5.862
N5725 X9.506 Y-5.962
N5730 X9.232 Y-6.376
N5735 X8.95 Y-6.79
N5740 X8.804 Y-6.998
N5745 X8.478 Y-7.453
N5750 X8.454 Y-7.487
N5755 G3 X8.387 Y-8.059 Z-7.635 I0.528 J-0.352
N5760 G2 X8.521 Y-8.434 Z-7.555 I-18.856 J-6.978
N5765 X9.312 Y-11.44 I-18.991 J-6.603
N5770 G1 X9.321 Y-11.508
N5775 X9.322 Y-11.577
N5780 X9.316 Y-11.646
N5785 X7.502 Y-23.98
N5790 X7.489 Y-24.048
N5795 X7.468 Y-24.114
N5800 X7.44 Y-24.177
N5805 G2 X5.94 Y-26.656 I-17.909 J9.139
N5810 X5.581 Y-27.148 Z-7.677 I-16.409 J11.619
N5815 G3 X5.453 Y-27.508 Z-7.755 I0.507 J-0.382
N5820 G1 Y-30.201
N5825 X5.469 Y-30.528
N5830 X5.501 Y-30.77
N5835 X5.558 Y-31.037
N5840 X5.643 Y-31.32
N5845 X5.764 Y-31.63
N5850 X5.92 Y-31.952
N5855 X6.12 Y-32.292
N5860 X6.373 Y-32.651
N5865 X6.664 Y-33.002
N5870 X7.024 Y-33.371
N5875 X7.439 Y-33.734
N5880 X7.9 Y-34.075
N5885 X8.433 Y-34.406
N5890 X9.031 Y-34.715
N5895 X9.683 Y-34.988
N5900 X10.356 Y-35.207
N5905 X10.82 Y-35.319
N5910 X11.143 Y-35.359
N5915 X11.466 Y-35.329
N5920 X11.775 Y-35.228
N5925 X12.054 Y-35.063
N5930 X12.291 Y-34.841
N5935 G3 X12.191 Y-33.949 Z-7.555 I-0.497 J0.396
N5940 G1 X12.172 Y-33.935
N5945 X6.465 Y-29.713
N5950 G3 X6.109 Y-29.589 I-0.378 J-0.511
N5955 X5.453 Y-30.201 Z-7.755 I-0.022 J-0.635
N5960 G1 Y-32.687
N5965 X5.462 Y-32.858
N5970 X5.492 Y-33.089
N5975 X5.543 Y-33.329
N5980 X5.625 Y-33.603
N5985 X5.733 Y-33.879
N5990 X5.885 Y-34.192
N5995 X6.067 Y-34.503
N6000 X6.308 Y-34.845
N6005 X6.589 Y-35.183
N6010 X6.932 Y-35.535
N6015 X7.277 Y-35.836
N6020 X7.314 Y-35.867
N6025 X7.351 Y-35.897
N6030 X7.39 Y-35.925
N6035 G3 X8.27 Y-35.747 Z-7.555 I0.351 J0.529
N6040 X8.282 Y-35.063 I-0.529 J0.351
N6045 G1 X6.628 Y-32.377
N6050 G3 X6.109 Y-32.075 I-0.541 J-0.333
N6055 X5.453 Y-32.687 Z-7.755 I-0.022 J-0.635
N6060 G1 Y-33.516
N6065 X5.462 Y-33.723
N6070 X5.477 Y-33.93
N6075 X5.503 Y-34.138
N6080 X5.537 Y-34.345
N6085 X5.548 Y-34.381
N6090 X5.622 Y-34.552
N6095 X5.677 Y-34.652
N6100 X5.762 Y-34.759
N6105 X5.863 Y-34.869
N6110 X5.963 Y-34.945
N6115 X6.377 Y-35.218
N6120 X6.617 Y-35.381
N6125 X6.792 Y-35.5
N6130 X6.999 Y-35.646
N6135 X7.498 Y-36.002
N6140 X8.24 Y-36.478
N6145 X8.676 Y-36.71
N6150 X9.065 Y-36.879
N6155 X9.335 Y-36.971
N6160 X9.631 Y-37.04
N6165 X9.935 Y-37.046
N6170 X10.234 Y-36.99
N6175 X10.515 Y-36.874
N6180 X10.767 Y-36.703
N6185 X10.978 Y-36.485
N6190 G3 X10.841 Y-35.598 Z-7.555 I-0.513 J0.375
N6195 X10.612 Y-35.492 I-0.375 J-0.512
N6200 G1 X8.031 Y-34.881
N6205 G3 X7.381 Y-35.112 I-0.146 J-0.618
N6210 X7.498 Y-36.002 Z-7.755 I0.504 J-0.386
N6215 G1 X7.62 Y-36.09
N6220 X7.77 Y-36.209
N6225 X8.001 Y-36.416
N6230 X8.242 Y-36.681
N6235 X8.359 Y-36.831
N6240 X8.738 Y-37.359
N6245 X8.831 Y-37.477
N6250 X9.013 Y-37.626
N6255 X9.227 Y-37.725
N6260 X9.459 Y-37.768
N6265 X9.694 Y-37.753
N6270 X9.918 Y-37.68
N6275 X10.117 Y-37.554
N6280 X10.278 Y-37.382
N6285 G3 X10.443 Y-36.86 Z-7.644 I-0.791 J0.537
N6290 X10.347 Y-36.434 Z-7.555 I-0.93 J0.014
N6295 X8.692 Y-36.41 I-0.833 J-0.412
N6300 X8.738 Y-37.359 Z-7.755 I0.822 J-0.436
N6305 G1 X9.004 Y-37.734
N6310 X9.071 Y-37.809
N6315 X9.138 Y-37.867
N6320 X9.208 Y-37.913
N6325 X9.278 Y-37.948
N6330 X9.381 Y-37.982
N6335 X9.485 Y-37.997
N6340 X9.589 Y-37.995
N6345 X9.692 Y-37.976
N6350 X9.796 Y-37.938
N6355 X9.848 Y-37.911
N6360 X9.899 Y-37.877
N6365 X9.913 Y-37.867
N6370 X9.966 Y-37.821
N6375 X10.019 Y-37.763
N6380 X10.09 Y-37.66
N6385 X10.227 Y-37.452
N6390 X10.314 Y-37.334
N6395 X10.728 Y-36.803
N6400 X12.009 Y-35.173
N6405 X12.184 Y-34.966
N6410 X12.386 Y-34.731
N6415 X12.551 Y-34.552
N6420 X14.104 Y-32.921
N6425 X14.151 Y-32.862
N6430 X14.19 Y-32.798
N6435 X14.213 Y-32.726 Z-7.75
N6440 X14.236 Y-32.655 Z-7.737
N6445 X14.259 Y-32.586 Z-7.714
N6450 X14.265 Y-32.5 Z-7.674
N6455 X14.253 Y-32.435 Z-7.631
N6460 X14.243 Y-32.377 Z-7.581
N6465 X14.233 Y-32.325 Z-7.524
N6470 X14.225 Y-32.28 Z-7.461
N6475 X14.207 Y-32.241 Z-7.382
N6480 X14.194 Y-32.212 Z-7.298
N6485 X14.186 Y-32.195 Z-7.21
N6490 X14.184 Y-32.189 Z-7.12
N6495 G0 Z5.
N6500 G1 X61.213 Y-11.116 F5000.
N6505 G0 Z2.5
N6510 G3 X61.72 Y-16.464 Z2.277 I1.97 J-2.511 F338.67
N6515 X66.365 Y-13.78 Z2.054 I1.461 J2.833
N6520 X61.995 Y-10.677 Z1.831 I-3.18 J0.149
N6525 X60.996 Y-15.935 Z1.608 I1.188 J-2.95
N6530 X66.186 Y-14.657 Z1.385 I2.185 J2.305
N6535 X62.866 Y-10.475 Z1.162 I-3.002 J1.025
N6540 X60.45 Y-15.229 Z0.939 I0.317 J-3.152
N6545 X65.771 Y-15.446 Z0.717 I2.731 J1.599
N6550 X63.756 Y-10.523 Z0.494 I-2.588 J1.814
N6555 X60.124 Y-14.401 Z0.271 I-0.572 J-3.104
N6560 X65.155 Y-16.086 Z0.048 I3.057 J0.772
N6565 X64.594 Y-10.817 Z-0.175 I-1.972 J2.455
N6570 X60.042 Y-13.518 Z-0.398 I-1.409 J-2.812
N6575 X64.388 Y-16.528 Z-0.621 I3.139 J-0.11
N6580 X65.314 Y-11.33 Z-0.844 I-1.206 J2.896
N6585 X60.208 Y-12.651 Z-1.067 I-2.129 J-2.299
N6590 X63.531 Y-16.737 Z-1.29 I2.973 J-0.977
N6595 X65.86 Y-12.021 Z-1.513 I-0.349 J3.106
N6600 X60.608 Y-11.867 Z-1.736 I-2.675 J-1.609
N6605 X62.653 Y-16.7 Z-1.959 I2.573 J-1.76
N6610 X66.191 Y-12.834 Z-2.182 I0.528 J3.069
N6615 X61.209 Y-11.229 Z-2.405 I-3.006 J-0.797
N6620 X61.824 Y-16.42 Z-2.628 I1.974 J-2.398
N6625 X66.282 Y-13.703 Z-2.85 I1.357 J2.789
N6630 X61.961 Y-10.785 Z-3.073 I-3.097 J0.072
N6635 X61.108 Y-15.922 Z-3.296 I1.222 J-2.843
N6640 X66.128 Y-14.56 Z-3.519 I2.073 J2.292
N6645 X62.803 Y-10.568 Z-3.742 I-2.943 J0.929
N6650 X60.561 Y-15.247 Z-3.965 I0.38 J-3.059
N6655 X65.742 Y-15.338 Z-4.188 I2.62 J1.618
N6660 X63.67 Y-10.595 Z-4.411 I-2.558 J1.706
N6665 X60.225 Y-14.449 Z-4.634 I-0.485 J-3.032
N6670 X65.157 Y-15.974 Z-4.857 I2.955 J0.82
N6675 X64.491 Y-10.862 Z-5.08 I-1.974 J2.342
N6680 X60.126 Y-13.593 Z-5.303 I-1.306 J-2.766
N6685 X64.42 Y-16.421 Z-5.526 I3.055 J-0.036
N6690 X65.203 Y-11.345 Z-5.749 I-1.238 J2.789
N6695 X60.268 Y-12.745 Z-5.972 I-2.018 J-2.284
N6700 X63.592 Y-16.644 Z-6.194 I2.913 J-0.882
N6705 X65.749 Y-12.004 Z-6.417 I-0.41 J3.012
N6710 X60.64 Y-11.975 Z-6.64 I-2.564 J-1.625
N6715 X62.738 Y-16.627 Z-6.863 I2.542 J-1.653
N6720 X66.089 Y-12.787 Z-7.086 I0.444 J2.996
N6725 X61.209 Y-11.34 Z-7.309 I-2.904 J-0.843
N6730 X61.925 Y-16.373 Z-7.532 I1.973 J-2.287
N6735 X66.197 Y-13.631 Z-7.755 I1.256 J2.743
N6740 X60.164 I-3.017 J0.
N6745 X66.197 I3.017 J0.
N6750 G1 X66.201 Y-13.403 F1016.
N6755 X66.356 Y-12.504
N6760 X66.41 Y-12.364
N6765 X66.448 Y-12.219
N6770 X66.47 Y-12.071
N6775 X66.48 Y-11.921
N6780 X66.476 Y-11.763
N6785 X66.459 Y-11.594
N6790 X66.427 Y-11.415
N6795 X66.377 Y-11.228
N6800 X66.308 Y-11.035
N6805 X66.219 Y-10.837
N6810 X66.109 Y-10.638
N6815 X65.978 Y-10.438
N6820 X65.824 Y-10.241
N6825 X65.648 Y-10.05
N6830 X65.449 Y-9.866
N6835 X65.229 Y-9.692
N6840 X64.988 Y-9.532
N6845 X64.727 Y-9.388
N6850 X64.447 Y-9.261
N6855 X64.151 Y-9.154
N6860 X63.841 Y-9.07
N6865 X63.518 Y-9.01
N6870 X63.185 Y-8.975
N6875 X62.845 Y-8.967
N6880 X62.5 Y-8.986
N6885 X62.153 Y-9.034
N6890 X61.806 Y-9.11
N6895 X61.464 Y-9.215
N6900 X61.128 Y-9.349
N6905 X60.8 Y-9.51
N6910 X60.485 Y-9.699
N6915 X60.183 Y-9.913
N6920 X59.899 Y-10.153
N6925 X59.632 Y-10.416
N6930 X59.387 Y-10.701
N6935 X59.165 Y-11.005
N6940 X58.967 Y-11.328
N6945 X58.795 Y-11.667
N6950 X58.65 Y-12.019
N6955 X58.534 Y-12.383
N6960 X58.447 Y-12.755
N6965 X58.391 Y-13.134
N6970 X58.364 Y-13.517
N6975 X58.369 Y-13.901
N6980 X58.405 Y-14.285
N6985 X58.471 Y-14.664
N6990 X58.567 Y-15.037
N6995 X58.694 Y-15.402
N7000 X58.849 Y-15.755
N7005 X59.032 Y-16.095
N7010 X59.242 Y-16.42
N7015 X59.478 Y-16.727
N7020 X59.737 Y-17.014
N7025 X60.019 Y-17.279
N7030 X60.321 Y-17.521
N7035 X60.642 Y-17.738
N7040 X60.98 Y-17.928
N7045 X61.331 Y-18.091
N7050 X61.695 Y-18.225
N7055 X62.068 Y-18.33
N7060 X62.448 Y-18.404
N7065 X62.833 Y-18.448
N7070 X63.221 Y-18.46
N7075 X63.608 Y-18.441
N7080 X63.993 Y-18.392
N7085 X64.372 Y-18.311
N7090 X64.744 Y-18.201
N7095 X65.106 Y-18.061
N7100 X65.455 Y-17.892
N7105 X65.789 Y-17.696
N7110 X66.107 Y-17.473
N7115 X66.406 Y-17.226
N7120 X66.684 Y-16.956
N7125 X66.94 Y-16.664
N7130 X67.171 Y-16.352
N7135 X67.411 Y-15.968
N7140 X67.816 Y-15.187
N7145 X68.079 Y-14.562
N7150 X68.255 Y-14.025
N7155 X68.373 Y-13.538
N7160 X68.446 Y-13.074
N7165 X68.481 Y-12.624
N7170 X68.479 Y-12.188
N7175 X68.443 Y-11.763
N7180 X68.374 Y-11.348
N7185 X68.273 Y-10.943
N7190 X68.139 Y-10.547
N7195 X67.974 Y-10.162
N7200 X67.777 Y-9.789
N7205 X67.549 Y-9.431
N7210 X67.291 Y-9.089
N7215 X67.003 Y-8.765
N7220 X66.687 Y-8.463
N7225 X66.343 Y-8.183
N7230 X65.973 Y-7.928
N7235 X65.578 Y-7.7
N7240 X65.16 Y-7.503
N7245 X64.721 Y-7.337
N7250 X64.265 Y-7.205
N7255 X63.794 Y-7.109
N7260 X63.311 Y-7.05
N7265 X62.819 Y-7.03
N7270 X62.322 Y-7.05
N7275 X61.824 Y-7.11
N7280 X61.328 Y-7.211
N7285 X60.839 Y-7.353
N7290 X60.358 Y-7.534
N7295 X59.891 Y-7.755
N7300 X59.44 Y-8.015
N7305 X59.008 Y-8.311
N7310 X58.6 Y-8.643
N7315 X58.218 Y-9.009
N7320 X57.865 Y-9.405
N7325 X57.543 Y-9.831
N7330 X57.256 Y-10.282
N7335 X57.005 Y-10.757
N7340 X56.792 Y-11.252
N7345 X56.62 Y-11.763
N7350 X56.488 Y-12.288
N7355 X56.399 Y-12.823
N7360 X56.353 Y-13.365
N7365 X56.351 Y-13.909
N7370 X56.392 Y-14.452
N7375 X56.477 Y-14.991
N7380 X56.605 Y-15.522
N7385 X56.776 Y-16.042
N7390 X56.988 Y-16.547
N7395 X57.239 Y-17.033
N7400 X57.53 Y-17.498
N7405 X57.857 Y-17.938
N7410 X58.218 Y-18.351
N7415 X58.611 Y-18.734
N7420 X59.034 Y-19.084
N7425 X59.484 Y-19.399
N7430 X59.958 Y-19.678
N7435 X60.453 Y-19.917
N7440 X60.966 Y-20.116
N7445 X61.493 Y-20.273
N7450 X62.031 Y-20.387
N7455 X62.576 Y-20.458
N7460 X63.126 Y-20.484
N7465 X63.675 Y-20.467
N7470 X64.222 Y-20.405
N7475 X64.762 Y-20.3
N7480 X65.292 Y-20.152
N7485 X65.809 Y-19.961
N7490 X66.308 Y-19.73
N7495 X66.788 Y-19.46
N7500 X67.244 Y-19.152
N7505 X67.684 Y-18.8
N7510 X68.162 Y-18.35
N7515 X68.617 Y-17.848
N7520 X69.043 Y-17.292
N7525 X69.429 Y-16.697
N7530 X69.76 Y-16.083
N7535 X70.035 Y-15.459
N7540 X70.252 Y-14.832
N7545 X70.415 Y-14.205
N7550 X70.471 Y-13.884
N7555 X70.483 Y-13.799
N7560 X70.491 Y-13.714
N7565 X70.493 Y-13.628
N7570 Y-12.384
N7575 X70.457 Y-11.657
N7580 X70.383 Y-11.099
N7585 X70.265 Y-10.544
N7590 X70.1 Y-9.995
N7595 X70.054 Y-9.877
N7600 X69.919 Y-9.612
N7605 X69.733 Y-9.379
N7610 X69.504 Y-9.188
N7615 G3 X68.629 Y-9.388 Z-7.555 I-0.337 J-0.538
N7620 X68.553 Y-9.887 I0.538 J-0.338
N7625 G1 X69.244 Y-12.523
N7630 G3 X69.837 Y-12.997 I0.614 J0.161
N7635 X70.493 Y-12.384 Z-7.755 I0.022 J0.635
N7640 G1 Y-10.934
N7645 X70.484 Y-10.727
N7650 X70.469 Y-10.52
N7655 X70.443 Y-10.312
N7660 X70.409 Y-10.105
N7665 X70.398 Y-10.069
N7670 X70.324 Y-9.898
N7675 X70.269 Y-9.798
N7680 X70.184 Y-9.691
N7685 X70.083 Y-9.581
N7690 X69.983 Y-9.505
N7695 X69.569 Y-9.232
N7700 X69.329 Y-9.069
N7705 X69.154 Y-8.95
N7710 X68.947 Y-8.804
N7715 X68.326 Y-8.36
N7720 X68.176 Y-8.241
N7725 X67.945 Y-8.034
N7730 X67.704 Y-7.769
N7735 X67.587 Y-7.619
N7740 X67.29 Y-7.205
N7745 X67.073 Y-6.934
N7750 X66.821 Y-6.665
N7755 X66.537 Y-6.407
N7760 X66.214 Y-6.158
N7765 X65.842 Y-5.916
N7770 X65.43 Y-5.693
N7775 X65.173 Y-5.579
N7780 X64.98 Y-5.51
N7785 X64.779 Y-5.467
N7790 X64.574 Y-5.453
N7795 G3 X63.962 Y-6.109 Z-7.555 I0.022 J-0.635
N7800 X64.24 Y-6.613 I0.635 J0.022
N7805 G1 X66.405 Y-8.083
N7810 G3 X67.114 Y-8.086 I0.357 J0.525
N7815 X67.29 Y-7.205 Z-7.755 I-0.353 J0.528
N7820 G1 X67.083 Y-6.914
N7825 X66.996 Y-6.79
N7830 X66.714 Y-6.376
N7835 X66.44 Y-5.962
N7840 X66.363 Y-5.862
N7845 X66.246 Y-5.755
N7850 X66.146 Y-5.676
N7855 X66.047 Y-5.621
N7860 X65.873 Y-5.547
N7865 X65.839 Y-5.537
N7870 X65.632 Y-5.503
N7875 X65.425 Y-5.478
N7880 X65.218 Y-5.461
N7885 X65.011 Y-5.453
N7890 X61.696
N7895 X61.026 Y-5.487
N7900 X60.555 Y-5.548
N7905 X60.055 Y-5.655
N7910 X59.536 Y-5.811
N7915 X59.012 Y-6.015
N7920 X58.494 Y-6.266
N7925 X57.981 Y-6.568
N7930 X57.477 Y-6.922
N7935 X56.989 Y-7.327
N7940 X56.524 Y-7.781
N7945 X56.237 Y-8.109
N7950 X56.081 Y-8.324
N7955 X55.966 Y-8.563
N7960 X55.896 Y-8.819
N7965 X55.872 Y-9.084
N7970 G3 X56.528 Y-9.696 Z-7.555 I0.635 J0.022
N7975 X56.823 Y-9.612 I-0.022 J0.635
N7980 G1 X61.99 Y-6.638
N7985 G3 X62.308 Y-6.109 I-0.317 J0.55
N7990 X61.696 Y-5.453 Z-7.755 I-0.635 J0.022
N7995 G1 X57.966
N8000 X57.75 Y-5.464
N8005 X57.458 Y-5.502
N8010 X57.156 Y-5.567
N8015 X56.826 Y-5.666
N8020 X56.568 Y-5.797
N8025 X56.34 Y-5.976
N8030 X56.151 Y-6.195
N8035 X56.008 Y-6.448
N8040 X55.918 Y-6.723
N8045 X55.882 Y-7.01
N8050 G3 X56.524 Y-7.639 Z-7.555 I0.635 J0.007
N8055 X56.86 Y-7.538 I-0.006 J0.635
N8060 G1 X58.287 Y-6.622
N8065 G3 X58.579 Y-6.109 I-0.343 J0.534
N8070 X57.966 Y-5.453 Z-7.755 I-0.635 J0.022
N8075 G1 X57.552
N8080 X57.345 Y-5.461
N8085 X57.138 Y-5.47
N8090 X56.93 Y-5.497
N8095 X56.723 Y-5.532
N8100 X56.675 Y-5.547
N8105 X56.516 Y-5.614
N8110 X56.413 Y-5.674
N8115 X56.307 Y-5.755
N8120 X56.253 Y-5.8
N8125 X56.198 Y-5.858
N8130 X56.117 Y-5.962
N8135 X56.102 Y-5.982
N8140 X56.043 Y-6.076
N8145 X56.002 Y-6.169
N8150 X55.96 Y-6.273
N8155 X55.934 Y-6.376
N8160 X55.895 Y-6.673
N8165 X55.888 Y-6.79
N8170 X55.873 Y-7.412
N8175 X55.872 Y-8.241
N8180 Y-16.735
N8185 X55.89 Y-17.088
N8190 X55.932 Y-17.41
N8195 X56.003 Y-17.74
N8200 X56.111 Y-18.101
N8205 X56.26 Y-18.484
N8210 X56.445 Y-18.866
N8215 X56.684 Y-19.271
N8220 X56.973 Y-19.684
N8225 X57.303 Y-20.081
N8230 X57.685 Y-20.472
N8235 X58.121 Y-20.853
N8240 X58.607 Y-21.213
N8245 X59.139 Y-21.544
N8250 X59.709 Y-21.838
N8255 X60.312 Y-22.09
N8260 X60.943 Y-22.296
N8265 X61.6 Y-22.453
N8270 X62.276 Y-22.559
N8275 X62.968 Y-22.611
N8280 X63.668 Y-22.606
N8285 X64.371 Y-22.546
N8290 X65.071 Y-22.428
N8295 X65.762 Y-22.254
N8300 X66.44 Y-22.024
N8305 X67.101 Y-21.739
N8310 X67.76 Y-21.389
N8315 X68.41 Y-20.974
N8320 X69.044 Y-20.494
N8325 X69.654 Y-19.95
N8330 X70.084 Y-19.499
N8335 X70.258 Y-19.277
N8340 X70.387 Y-19.027
N8345 X70.466 Y-18.757
N8350 X70.493 Y-18.476
N8355 Y-13.628
N8360 G3 X69.837 Y-13.016 Z-7.555 I-0.635 J-0.022
N8365 G1 X69.775 Y-13.021
N8370 X69.714 Y-13.032
N8375 X56.525 Y-16.101
N8380 X56.363 Y-16.139 Z-7.588
N8385 G3 X55.872 Y-16.735 Z-7.755 I0.144 J-0.618
N8390 G1 Y-19.428
N8395 X55.888 Y-19.755
N8400 X55.92 Y-19.997
N8405 X55.977 Y-20.264
N8410 X56.062 Y-20.547
N8415 X56.183 Y-20.857
N8420 X56.339 Y-21.179
N8425 X56.539 Y-21.519
N8430 X56.792 Y-21.878
N8435 X57.083 Y-22.229
N8440 X57.443 Y-22.598
N8445 X57.858 Y-22.961
N8450 X58.319 Y-23.302
N8455 X58.852 Y-23.633
N8460 X59.45 Y-23.942
N8465 X60.102 Y-24.214
N8470 X60.789 Y-24.439
N8475 X61.521 Y-24.614
N8480 X62.297 Y-24.735
N8485 X63.106 Y-24.796
N8490 X63.936 Y-24.791
N8495 X64.78 Y-24.718
N8500 X65.628 Y-24.576
N8505 X66.478 Y-24.362
N8510 X67.326 Y-24.074
N8515 X68.163 Y-23.713
N8520 X68.969 Y-23.286
N8525 X69.729 Y-22.804
N8530 X69.902 Y-22.673
N8535 X70.105 Y-22.489
N8540 X70.27 Y-22.271
N8545 X70.393 Y-22.026
N8550 X70.468 Y-21.762
N8555 X70.493 Y-21.49
N8560 Y-18.476
N8565 G3 X69.837 Y-17.864 Z-7.555 I-0.635 J-0.022
N8570 G1 X69.813 Y-17.865
N8575 X56.528 Y-18.812
N8580 X56.461 Y-18.817 Z-7.568
N8585 G3 X55.872 Y-19.428 Z-7.755 I0.045 J-0.633
N8590 G1 Y-21.914
N8595 X55.881 Y-22.085
N8600 X55.911 Y-22.316
N8605 X55.962 Y-22.555
N8610 X56.044 Y-22.83
N8615 X56.152 Y-23.106
N8620 X56.304 Y-23.419
N8625 X56.486 Y-23.729
N8630 X56.727 Y-24.072
N8635 X57.008 Y-24.41
N8640 X57.351 Y-24.762
N8645 X57.764 Y-25.122
N8650 X58.216 Y-25.457
N8655 X58.753 Y-25.791
N8660 X59.373 Y-26.111
N8665 X60.034 Y-26.387
N8670 X60.763 Y-26.625
N8675 X61.568 Y-26.818
N8680 X62.435 Y-26.954
N8685 X63.344 Y-27.021
N8690 X64.256 Y-27.017
N8695 X65.165 Y-26.943
N8700 X66.065 Y-26.801
N8705 X66.953 Y-26.592
N8710 X67.824 Y-26.321
N8715 X68.674 Y-25.991
N8720 X69.402 Y-25.65
N8725 X69.744 Y-25.455
N8730 X69.997 Y-25.273
N8735 X70.207 Y-25.043
N8740 X70.363 Y-24.774
N8745 X70.46 Y-24.477
N8750 X70.493 Y-24.168
N8755 Y-21.49
N8760 G3 X69.838 Y-20.877 Z-7.555 I-0.635 J-0.022
N8765 G1 X69.837
N8770 X56.528 Y-21.3
N8775 X56.486 Y-21.302 Z-7.563
N8780 G3 X55.872 Y-21.914 Z-7.755 I0.02 J-0.635
N8785 G1 Y-24.193
N8790 X55.88 Y-24.343
N8795 X55.909 Y-24.561
N8800 X55.963 Y-24.802
N8805 X56.042 Y-25.063
N8810 X56.153 Y-25.342
N8815 X56.301 Y-25.642
N8820 X56.487 Y-25.955
N8825 X56.723 Y-26.287
N8830 X57.011 Y-26.629
N8835 X57.349 Y-26.972
N8840 X57.769 Y-27.334
N8845 X58.227 Y-27.669
N8850 X58.779 Y-28.008
N8855 X59.424 Y-28.336
N8860 X60.108 Y-28.617
N8865 X60.893 Y-28.868
N8870 X61.766 Y-29.072
N8875 X62.668 Y-29.208
N8880 X63.577 Y-29.275
N8885 X64.489 Y-29.276
N8890 X65.398 Y-29.212
N8895 X66.302 Y-29.087
N8900 X67.195 Y-28.904
N8905 X68.075 Y-28.666
N8910 X68.894 Y-28.388
N8915 X69.446 Y-28.149
N8920 X69.707 Y-28.011
N8925 X69.971 Y-27.831
N8930 X70.191 Y-27.598
N8935 X70.356 Y-27.324
N8940 X70.458 Y-27.021
N8945 X70.493 Y-26.702
N8950 Y-24.168
N8955 G3 X69.857 Y-23.555 Z-7.559 I-0.635 J-0.022
N8960 G1 X69.837 Z-7.555
N8965 X56.528 Y-23.58
N8970 X56.505 Z-7.56
N8975 G3 X55.872 Y-24.193 Z-7.755 I0.001 J-0.635
N8980 G1 Y-26.265
N8985 X55.886 Y-26.541
N8990 X55.914 Y-26.758
N8995 X55.965 Y-26.993
N9000 X56.043 Y-27.254
N9005 X56.148 Y-27.525
N9010 X56.295 Y-27.828
N9015 X56.474 Y-28.133
N9020 X56.712 Y-28.47
N9025 X56.989 Y-28.804
N9030 X57.332 Y-29.155
N9035 X57.576 Y-29.369
N9040 X57.613 Y-29.4
N9045 X57.651 Y-29.43
N9050 X57.69 Y-29.458
N9055 G3 X58.569 Y-29.28 Z-7.555 I0.351 J0.529
N9060 X58.589 Y-28.61 I-0.529 J0.351
N9065 G1 X57.056 Y-25.968
N9070 G3 X56.528 Y-25.652 I-0.549 J-0.319
N9075 X55.872 Y-26.265 Z-7.755 I-0.022 J-0.635
N9080 G1 Y-26.679
N9085 X55.88 Y-27.301
N9090 X55.892 Y-27.508
N9095 X55.918 Y-27.715
N9100 X55.934 Y-27.819
N9105 X55.963 Y-27.922
N9110 X56.004 Y-28.026
N9115 X56.054 Y-28.129
N9120 X56.102 Y-28.201
N9125 X56.206 Y-28.337
N9130 X56.309 Y-28.43
N9135 X56.445 Y-28.544
N9140 X56.516 Y-28.599
N9145 X57.138 Y-29.064
N9150 X57.552 Y-29.36
N9155 X57.966 Y-29.656
N9160 X58.734 Y-30.148
N9165 X59.314 Y-30.463
N9170 X60.006 Y-30.769
N9175 X60.799 Y-31.047
N9180 X61.681 Y-31.278
N9185 X62.578 Y-31.437
N9190 X63.486 Y-31.529
N9195 X64.397 Y-31.555
N9200 X65.308 Y-31.522
N9205 X66.216 Y-31.433
N9210 X67.116 Y-31.29
N9215 X68.007 Y-31.095
N9220 X68.77 Y-30.871
N9225 X69.309 Y-30.664
N9230 X69.651 Y-30.501
N9235 X69.933 Y-30.325
N9240 X70.168 Y-30.09
N9245 X70.346 Y-29.809
N9250 X70.456 Y-29.495
N9255 X70.493 Y-29.164
N9260 Y-26.702
N9265 G3 X69.837 Y-26.09 Z-7.555 I-0.635 J-0.022
N9270 G1 X69.782 Y-26.094
N9275 X69.727 Y-26.103
N9280 X58.222 Y-28.531
N9285 G3 X57.849 Y-28.766 I0.131 J-0.621
N9290 X57.966 Y-29.656 Z-7.755 I0.504 J-0.386
N9295 G1 X58.44 Y-29.994
N9300 X58.588 Y-30.101
N9305 X59.002 Y-30.413
N9310 X59.21 Y-30.57
N9315 X61.074 Y-32.188
N9320 X61.427 Y-32.465
N9325 X61.732 Y-32.666
N9330 X62.092 Y-32.865
N9335 X62.518 Y-33.057
N9340 X63.02 Y-33.236
N9345 X63.624 Y-33.399
N9350 X64.294 Y-33.523
N9355 X65.085 Y-33.604
N9360 X65.981 Y-33.624
N9365 X66.891 Y-33.57
N9370 X67.77 Y-33.45
N9375 X68.505 Y-33.288
N9380 X69.058 Y-33.119
N9385 X69.533 Y-32.931
N9390 X69.666 Y-32.865
N9395 X69.943 Y-32.688
N9400 X70.175 Y-32.454
N9405 X70.349 Y-32.174
N9410 X70.456 Y-31.863
N9415 X70.493 Y-31.536
N9420 Y-29.164
N9425 G3 X69.837 Y-28.552 Z-7.555 I-0.635 J-0.022
N9430 G1 X69.754 Y-28.56
N9435 X69.674 Y-28.579
N9440 X61.322 Y-31.116
N9445 G3 X61.042 Y-31.291 I0.185 J-0.608
N9450 X61.074 Y-32.188 Z-7.755 I0.465 J-0.432
N9455 G1 X61.172 Y-32.273
N9460 X61.281 Y-32.371
N9465 X61.489 Y-32.562
N9470 X61.619 Y-32.687
N9475 X62.939 Y-34.073
N9480 X63.214 Y-34.334
N9485 X63.436 Y-34.514
N9490 X63.713 Y-34.703
N9495 X64.014 Y-34.875
N9500 X64.397 Y-35.054
N9505 X64.814 Y-35.21
N9510 X65.324 Y-35.356
N9515 X65.862 Y-35.463
N9520 X66.479 Y-35.536
N9525 X67.124 Y-35.559
N9530 X67.776 Y-35.531
N9535 X68.341 Y-35.46
N9540 X68.856 Y-35.354
N9545 X69.272 Y-35.232
N9550 X69.528 Y-35.134
N9555 X69.812 Y-34.989
N9560 X70.059 Y-34.785
N9565 X70.256 Y-34.534
N9570 X70.395 Y-34.246
N9575 X70.469 Y-33.935
N9580 G3 X69.894 Y-33.246 Z-7.555 I-0.632 J0.057
N9585 G1 X69.859 Y-33.243
N9590 X63.436 Y-33.017
N9595 G3 X62.992 Y-33.177 I-0.022 J-0.635
N9600 X62.939 Y-34.073 Z-7.755 I0.422 J-0.474
N9605 G1 X63.395 Y-34.552
N9610 X63.56 Y-34.731
N9615 X63.768 Y-34.973
N9620 X63.937 Y-35.173
N9625 X64.515 Y-35.909
N9630 X64.666 Y-36.082
N9635 X64.835 Y-36.248
N9640 X65.045 Y-36.422
N9645 X65.278 Y-36.587
N9650 X65.569 Y-36.758
N9655 X65.881 Y-36.91
N9660 X66.123 Y-37.005
N9665 X66.409 Y-37.085
N9670 X66.705 Y-37.106
N9675 X67. Y-37.067
N9680 X67.281 Y-36.971
N9685 X67.537 Y-36.82
N9690 X67.758 Y-36.622
N9695 G3 X67.685 Y-35.727 Z-7.555 I-0.484 J0.411
N9700 X67.457 Y-35.603 I-0.411 J-0.484
N9705 G1 X65.211 Y-34.926
N9710 G3 X64.653 Y-35.022 I-0.183 J-0.608
N9715 X64.515 Y-35.909 Z-7.755 I0.375 J-0.512
N9720 G1 X65.24 Y-36.831
N9725 X65.632 Y-37.334
N9730 X65.719 Y-37.452
N9735 X65.808 Y-37.573
N9740 X66.014 Y-37.72
N9745 X66.253 Y-37.803
N9750 X66.506 Y-37.815
N9755 X66.752 Y-37.756
N9760 X66.971 Y-37.63
N9765 X67.146 Y-37.446
N9770 G3 X67.126 Y-36.51 Z-7.555 I-0.687 J0.454
N9775 G1 X67.086 Y-36.459
N9780 G3 X65.753 Y-36.512 I-0.646 J-0.549
N9785 X65.719 Y-37.452 Z-7.755 I0.688 J-0.496
N9790 G1 X65.856 Y-37.66
N9795 X65.927 Y-37.763
N9800 X65.98 Y-37.821
N9805 X66.033 Y-37.867
N9810 X66.047 Y-37.877
N9815 X66.098 Y-37.911
N9820 X66.15 Y-37.938
N9825 X66.254 Y-37.976
N9830 X66.357 Y-37.995
N9835 X66.461 Y-37.997
N9840 X66.565 Y-37.982
N9845 X66.668 Y-37.948
N9850 X66.738 Y-37.913
N9855 X66.808 Y-37.867
N9860 X66.875 Y-37.809
N9865 X66.942 Y-37.734
N9870 X67.166 Y-37.418
N9875 X67.546 Y-36.887
N9880 X67.587 Y-36.831
N9885 X67.704 Y-36.681
N9890 X67.945 Y-36.416
N9895 X68.176 Y-36.209
N9900 X68.326 Y-36.09
N9905 X68.947 Y-35.646
N9910 X69.154 Y-35.5
N9915 X69.362 Y-35.359
N9920 X69.569 Y-35.218
N9925 X69.983 Y-34.945
N9930 X70.083 Y-34.869
N9935 X70.19 Y-34.751
N9940 X70.269 Y-34.652
N9945 X70.324 Y-34.552
N9950 X70.398 Y-34.381
N9955 X70.409 Y-34.345
N9960 X70.443 Y-34.138
N9965 X70.469 Y-33.93
N9970 X70.484 Y-33.723
N9975 X70.493 Y-33.516
N9980 Y-31.536
N9985 G3 X70.045 Y-30.951 I-0.635 J-0.022
N9990 G1 X69.951 Y-30.922 Z-7.747
N9995 X69.858 Y-30.894 Z-7.724
N10000 X69.77 Y-30.866 Z-7.686
N10005 X69.689 Y-30.841 Z-7.634
N10010 X69.616 Y-30.819 Z-7.569
N10015 X69.555 Y-30.8 Z-7.493
N10020 X69.505 Y-30.785 Z-7.408
N10025 X69.468 Y-30.773 Z-7.316
N10030 X69.446 Y-30.767 Z-7.219
N10035 X69.439 Y-30.764 Z-7.12
N10040 G0 Z15.

(2D Pocket1)
N10045 G1 X38.431 Y-17.764 F5000.
N10050 G0 Z15.
N10055 Z5.
N10060 G1 Z3.135 F338.67
N10065 X38.461 Y-17.761 Z2.943
N10070 X38.547 Y-17.751 Z2.769
N10075 X38.68 Y-17.731 Z2.629
N10080 X38.848 Y-17.697 Z2.536
N10085 X39.032 Y-17.648 Z2.5
N10090 G3 X38.777 Y-17.712 Z1.847 I-0.869 J2.888
N10095 X38.517 Y-17.755 Z1.195 I-0.614 J2.953
N10100 X38.255 Y-17.774 Z0.542 I-0.354 J2.995
N10105 X37.992 Y-17.771 Z-0.11 I-0.092 J3.015
N10110 X37.73 Y-17.744 Z-0.763 I0.172 J3.011
N10115 X37.471 Y-17.695 Z-1.416 I0.433 J2.985
N10120 X37.218 Y-17.624 Z-2.068 I0.692 J2.936
N10125 X36.972 Y-17.53 Z-2.721 I0.945 J2.864
N10130 X36.735 Y-17.416 Z-3.374 I1.191 J2.771
N10135 X36.509 Y-17.281 Z-4.026 I1.428 J2.657
N10140 X36.296 Y-17.128 Z-4.679 I1.654 J2.522
N10145 X38.163 Y-11.743 Z-5.08 I1.868 J2.368
N10150 G1 X35.557 F1016.
N10155 G3 X35.238 Y-12.062 I0. J-0.319
N10160 G1 Y-16.674
N10165 G3 X35.488 Y-16.909 I0.235 J0.
N10170 G2 X40.458 I2.485 J-40.241
N10175 G3 X40.708 Y-16.674 I0.015 J0.235
N10180 G1 Y-12.062
N10185 G3 X40.389 Y-11.743 I-0.319 J0.
N10190 G1 X38.163
N10195 G2 X35.857 Y-10.205 I0. J2.498
N10200 G3 X33.551 Y-8.668 I-2.306 J-0.961
N10205 G1 X32.482
N10210 G3 X32.163 Y-8.987 I0. J-0.319
N10215 G1 Y-20.089
N10220 G3 X32.433 Y-20.321 I0.235 J0.
N10225 G2 X43.513 I5.54 J-36.829
N10230 G3 X43.783 Y-20.089 I0.035 J0.233
N10235 G1 Y-8.987
N10240 G3 X43.464 Y-8.668 I-0.319 J0.
N10245 G1 X33.551
N10250 G2 X31.514 Y-7.267 I0. J2.181
N10255 G3 X29.083 Y-7.716 I-1.174 J-0.449
N10260 G1 Y-22.864
N10265 G3 X30.326 Y-23.854 I1.016 J0.
N10270 G2 X45.62 I7.647 J-33.296
N10275 G3 X46.863 Y-22.864 I0.227 J0.99
N10280 G1 Y-6.604
N10285 G3 X45.847 Y-5.588 I-1.016 J0.
N10290 G1 X30.099
N10295 G3 X29.083 Y-6.604 I0. J-1.016
N10300 G1 Y-7.716
N10305 G2 X28.765 Y-8.193 I-0.516 J0.
N10310 G3 X28.448 Y-8.669 I0.198 J-0.476
N10315 G1 Y-22.864
N10320 G3 X30.469 Y-24.473 I1.651 J0.
N10325 G2 X45.477 I7.504 J-32.677
N10330 G3 X47.498 Y-22.864 I0.37 J1.609
N10335 G1 Y-6.604
N10340 G3 X45.847 Y-4.953 I-1.651 J0.
N10345 G1 X30.099
N10350 G3 X28.448 Y-6.604 I0. J-1.651
N10355 G1 Y-8.669
N10360 X28.458 Y-8.766 Z-5.064
N10365 X28.484 Y-8.861 Z-5.049
N10370 X28.519 Y-8.942 Z-5.004
N10375 X28.566 Y-9.017 Z-4.959
N10380 X28.61 Y-9.071 Z-4.888
N10385 X28.661 Y-9.12 Z-4.818
N10390 X28.733 Y-9.174 Z-4.641
N10395 X28.759 Y-9.19 Z-4.445
N10400 G0 Z15.
N10405 G1 X60.56 Y-16.546 F5000.
N10410 G0 Z5.
N10415 G1 Z3.135 F338.67
N10420 X60.589 Y-16.552 Z2.943
N10425 X60.674 Y-16.568 Z2.769
N10430 X60.808 Y-16.587 Z2.629
N10435 X60.978 Y-16.604 Z2.536
N10440 X61.168 Y-16.611 Z2.5
N10445 G3 X60.905 Y-16.598 Z1.847 I0.018 J3.016
N10450 X60.645 Y-16.562 Z1.195 I0.281 J3.003
N10455 X60.388 Y-16.504 Z0.542 I0.542 J2.967
N10460 X60.138 Y-16.423 Z-0.11 I0.798 J2.909
N10465 X59.895 Y-16.321 Z-0.763 I1.049 J2.828
N10470 X59.663 Y-16.198 Z-1.416 I1.291 J2.726
N10475 X59.442 Y-16.055 Z-2.068 I1.524 J2.603
N10480 X59.234 Y-15.894 Z-2.721 I1.745 J2.46
N10485 X59.041 Y-15.715 Z-3.374 I1.953 J2.299
N10490 X58.864 Y-15.52 Z-4.026 I2.146 J2.12
N10495 X58.705 Y-15.31 Z-4.679 I2.322 J1.925
N10500 X58.565 Y-15.087 Z-5.331 I2.481 J1.715
N10505 X58.445 Y-14.853 Z-5.984 I2.621 J1.492
N10510 X58.346 Y-14.609 Z-6.637 I2.741 J1.258
N10515 X58.269 Y-14.358 Z-7.289 I2.841 J1.014
N10520 X58.213 Y-14.101 Z-7.942 I2.918 J0.763
N10525 X64.203 Y-13.595 Z-8.255 I2.974 J0.506
N10530 G1 Y-13.589 F1016.
N10535 G3 X63.877 Y-12.848 I-1.008 J0.
N10540 G2 X62.933 Y-11.885 I8.894 J9.673
N10545 G3 X62.617 Y-11.743 I-0.316 J-0.28
N10550 G1 X62.481
N10555 G3 X62.162 Y-12.062 I0. J-0.319
N10560 G1 Y-24.519
N10565 G3 X62.458 Y-25.119 I0.754 J0.
N10570 G2 X63.989 Y-26.349 I-24.485 J-32.031
N10575 G1 X64.025 Y-26.37
N10580 X64.066 Y-26.379
N10585 X64.108 Y-26.375
N10590 X64.146 Y-26.357
N10595 X64.177 Y-26.328
N10600 X64.196 Y-26.291
N10605 X64.203 Y-26.249
N10610 Y-13.595
N10615 G2 X65.067 Y-11.822 I2.25 J0.
N10620 G3 X65.245 Y-9.858 I-0.833 J1.066
N10625 G2 X64.554 Y-8.987 I7.526 J6.683
N10630 G3 X63.938 Y-8.668 I-0.616 J-0.436
N10635 G1 X59.406
N10640 G3 X59.087 Y-8.987 I0. J-0.319
N10645 G1 Y-26.076
N10650 G3 X59.407 Y-26.693 I0.754 J0.
N10655 G2 X66.407 Y-33.097 I-21.434 J-30.457
N10660 G3 X66.834 Y-33.148 I0.241 J0.204
N10665 G1 X67.035 Y-33.004
N10670 G3 X67.278 Y-32.54 I-0.322 J0.464
N10675 G1 Y-12.008
N10680 G3 X66.959 Y-11.392 I-0.754 J0.
N10685 G2 X65.245 Y-9.858 I5.812 J8.217
N10690 X65.104 Y-7.595 I1.376 J1.222
N10695 G3 X64.047 Y-5.588 I-1.057 J0.725
N10700 G1 X57.023
N10705 G3 X56.007 Y-6.604 I0. J-1.016
N10710 G1 Y-27.575
N10715 G3 X56.473 Y-28.429 I1.016 J0.
N10720 G2 X66.457 Y-38.288 I-18.5 J-28.721
N10725 X69.777 Y-34.964 I6.314 J-2.987
N10730 G3 X70.358 Y-34.046 I-0.435 J0.918
N10735 G1 Y-10.404
N10740 G3 X69.777 Y-9.486 I-1.016 J0.
N10745 G2 X66.46 Y-6.169 I2.994 J6.311
N10750 G3 X65.542 Y-5.588 I-0.918 J-0.435
N10755 G1 X64.047
N10760 G2 X63.571 Y-5.271 I0. J0.516
N10765 G3 X63.094 Y-4.953 I-0.476 J-0.198
N10770 G1 X57.023
N10775 G3 X55.372 Y-6.604 I0. J-1.651
N10780 G1 Y-27.575
N10785 G3 X56.129 Y-28.963 I1.651 J0.
N10790 G2 X66.347 Y-39.288 I-18.156 J-28.187
N10795 G3 X67.034 Y-38.554 I-0.805 J1.442
N10800 G2 X70.05 Y-35.538 I5.737 J-2.721
N10805 G3 X70.993 Y-34.046 I-0.708 J1.492
N10810 G1 Y-10.404
N10815 G3 X70.05 Y-8.912 I-1.651 J0.
N10820 G2 X67.034 Y-5.896 I2.721 J5.737
N10825 G3 X65.542 Y-4.953 I-1.492 J-0.708
N10830 G1 X63.094
N10835 X62.997 Y-4.963 Z-8.239
N10840 X62.902 Y-4.989 Z-8.224
N10845 X62.821 Y-5.024 Z-8.179
N10850 X62.746 Y-5.071 Z-8.134
N10855 X62.692 Y-5.115 Z-8.063
N10860 X62.643 Y-5.166 Z-7.993
N10865 X62.589 Y-5.238 Z-7.816
N10870 X62.573 Y-5.264 Z-7.62
N10875 G0 Z5.
N10880 G1 X10.141 Y-16.546 F5000.
N10885 Z3.135 F338.67
N10890 X10.17 Y-16.552 Z2.943
N10895 X10.255 Y-16.568 Z2.769
N10900 X10.389 Y-16.588 Z2.629
N10905 X10.559 Y-16.604 Z2.536
N10910 X10.749 Y-16.611 Z2.5
N10915 G3 X10.486 Y-16.598 Z1.847 I0.018 J3.016
N10920 X10.226 Y-16.562 Z1.195 I0.281 J3.003
N10925 X9.969 Y-16.504 Z0.542 I0.542 J2.967
N10930 X9.719 Y-16.423 Z-0.11 I0.798 J2.909
N10935 X9.476 Y-16.321 Z-0.763 I1.049 J2.828
N10940 X9.244 Y-16.198 Z-1.416 I1.291 J2.726
N10945 X9.023 Y-16.055 Z-2.068 I1.524 J2.603
N10950 X8.815 Y-15.894 Z-2.721 I1.745 J2.46
N10955 X8.622 Y-15.715 Z-3.374 I1.953 J2.299
N10960 X8.445 Y-15.52 Z-4.026 I2.146 J2.12
N10965 X8.286 Y-15.31 Z-4.679 I2.322 J1.925
N10970 X8.146 Y-15.087 Z-5.331 I2.481 J1.715
N10975 X8.026 Y-14.853 Z-5.984 I2.621 J1.492
N10980 X7.927 Y-14.609 Z-6.637 I2.741 J1.258
N10985 X7.85 Y-14.358 Z-7.289 I2.841 J1.014
N10990 X7.794 Y-14.101 Z-7.942 I2.918 J0.763
N10995 X13.784 Y-13.595 Z-8.255 I2.974 J0.506
N11000 G1 Y-12.062 F1016.
N11005 G3 X13.465 Y-11.743 I-0.319 J0.
N11010 G1 X13.329
N11015 G3 X13.013 Y-11.885 I0. J-0.422
N11020 G2 X12.069 Y-12.848 I-9.838 J8.71
N11025 G3 X11.743 Y-13.589 I0.682 J-0.742
N11030 G1 Y-26.249
N11035 X11.75 Y-26.291
N11040 X11.769 Y-26.328
N11045 X11.8 Y-26.357
N11050 X11.838 Y-26.375
N11055 X11.88 Y-26.379
N11060 X11.921 Y-26.37
N11065 X11.957 Y-26.349
N11070 G2 X13.488 Y-25.119 I26.016 J-30.801
N11075 G3 X13.784 Y-24.519 I-0.458 J0.599
N11080 G1 Y-13.595
N11085 G2 X15.33 Y-11.295 I2.485 J0.
N11090 G3 X16.859 Y-8.983 I-0.929 J2.276
N11095 X16.54 Y-8.668 I-0.319 J-0.005
N11100 G1 X12.008
N11105 G3 X11.393 Y-8.987 I0. J-0.754
N11110 G2 X8.987 Y-11.393 I-8.218 J5.812
N11115 G3 X8.668 Y-12.008 I0.436 J-0.616
N11120 G1 Y-32.54
N11125 G3 X8.911 Y-33.004 I0.565 J0.
N11130 G1 X9.112 Y-33.148
N11135 G3 X9.539 Y-33.097 I0.186 J0.255
N11140 G2 X16.539 Y-26.693 I28.434 J-24.053
N11145 G3 X16.859 Y-26.076 I-0.434 J0.617
N11150 G1 Y-8.987
N11155 Y-8.983
N11160 G2 X17.856 Y-7.409 I1.701 J0.025
N11165 G3 X17.462 Y-5.588 I-0.394 J0.868
N11170 G1 X10.404
N11175 G3 X9.486 Y-6.169 I0. J-1.016
N11180 G2 X6.169 Y-9.486 I-6.311 J2.994
N11185 G3 X5.588 Y-10.404 I0.435 J-0.918
N11190 G1 Y-34.046
N11195 G3 X6.169 Y-34.964 I1.016 J0.
N11200 G2 X9.486 Y-38.281 I-2.994 J-6.311
N11205 X19.473 Y-28.429 I28.476 J-18.879
N11210 G3 X19.939 Y-27.575 I-0.55 J0.854
N11215 G1 Y-6.604
N11220 G3 X18.923 Y-5.588 I-1.016 J0.
N11225 G1 X17.462
N11230 G2 X16.986 Y-5.271 I0. J0.516
N11235 G3 X16.51 Y-4.953 I-0.476 J-0.198
N11240 G1 X10.404
N11245 G3 X8.912 Y-5.896 I0. J-1.651
N11250 G2 X5.896 Y-8.912 I-5.737 J2.721
N11255 G3 X4.953 Y-10.404 I0.708 J-1.492
N11260 G1 Y-34.046
N11265 G3 X5.896 Y-35.538 I1.651 J0.
N11270 G2 X8.912 Y-38.554 I-2.721 J-5.737
N11275 G3 X9.599 Y-39.288 I1.492 J0.708
N11280 G2 X19.817 Y-28.963 I28.374 J-17.862
N11285 G3 X20.574 Y-27.575 I-0.894 J1.388
N11290 G1 Y-6.604
N11295 G3 X18.923 Y-4.953 I-1.651 J0.
N11300 G1 X16.51
N11305 X16.412 Y-4.963 Z-8.239
N11310 X16.317 Y-4.989 Z-8.224
N11315 X16.236 Y-5.024 Z-8.179
N11320 X16.161 Y-5.071 Z-8.134
N11325 X16.107 Y-5.115 Z-8.063
N11330 X16.058 Y-5.166 Z-7.993
N11335 X16.004 Y-5.238 Z-7.816
N11340 X15.988 Y-5.264 Z-7.62
N11345 G0 Z15.

(2D Adaptive2)
N11350 G1 X71.816 Y5.465 F5000.
N11355 G0 Z15.
N11360 Z5.
N11365 Z-10.93
N11370 G1 Z-11.565 F1016.
N11375 X71.822 Y5.46 Z-11.664
N11380 X71.84 Y5.445 Z-11.761
N11385 X71.87 Y5.421 Z-11.853
N11390 X71.91 Y5.389 Z-11.938
N11395 X71.961 Y5.348 Z-12.014
N11400 X72.02 Y5.301 Z-12.079
N11405 X72.086 Y5.247 Z-12.131
N11410 X72.158 Y5.19 Z-12.169
N11415 X72.233 Y5.129 Z-12.192
N11420 X72.311 Y5.067 Z-12.2
N11425 G3 X75.252 Y3.184 I10.158 J12.634
N11430 G1 X75.574 Y3.038
N11435 X75.666 Y2.994
N11440 X76.288 Y2.677
N11445 X76.495 Y2.56
N11450 X76.702 Y2.428
N11455 X76.909 Y2.28
N11460 X77.116 Y2.1
N11465 X77.224 Y2.003
N11470 X77.847 Y1.381
N11475 X77.945 Y1.278
N11480 X78.152 Y1.055
N11485 X78.22 Y0.967
N11490 X78.375 Y0.76
N11495 X78.503 Y0.553
N11500 X78.566 Y0.449
N11505 X78.726 Y0.139
N11510 G3 X79.391 Y-0.176 I0.554 J0.31
N11515 G1 X79.489 Y-0.158 Z-12.192
N11520 X79.585 Y-0.141 Z-12.169
N11525 X79.675 Y-0.125 Z-12.131
N11530 X79.759 Y-0.11 Z-12.079
N11535 X79.833 Y-0.097 Z-12.014
N11540 X79.897 Y-0.086 Z-11.938
N11545 X79.948 Y-0.077 Z-11.853
N11550 X79.986 Y-0.07 Z-11.761
N11555 X80.009 Y-0.066 Z-11.664
N11560 X80.017 Y-0.064 Z-11.565
N11565 G0 Z5.
N11570 G1 X81.483 Y-40.371 F5000.
N11575 G0 Z-10.93
N11580 G1 Z-11.565 F1016.
N11585 X81.478 Y-40.377 Z-11.664
N11590 X81.463 Y-40.395 Z-11.761
N11595 X81.438 Y-40.424 Z-11.853
N11600 X81.405 Y-40.464 Z-11.938
N11605 X81.363 Y-40.513 Z-12.014
N11610 X81.314 Y-40.571 Z-12.079
N11615 X81.26 Y-40.636 Z-12.131
N11620 X81.201 Y-40.707 Z-12.169
N11625 X81.139 Y-40.781 Z-12.192
N11630 X81.075 Y-40.857 Z-12.2
N11635 G3 X79.133 Y-43.761 I12.427 J-10.41
N11640 G1 X78.935 Y-44.175
N11645 X78.832 Y-44.382
N11650 X78.566 Y-44.899
N11655 X78.503 Y-45.003
N11660 X78.375 Y-45.21
N11665 X78.22 Y-45.417
N11670 X78.152 Y-45.505
N11675 X77.945 Y-45.728
N11680 X77.847 Y-45.831
N11685 X77.224 Y-46.453
N11690 X77.116 Y-46.55
N11695 X76.909 Y-46.73
N11700 X76.702 Y-46.878
N11705 X76.495 Y-47.01
N11710 X76.288 Y-47.127
N11715 X76.081 Y-47.233
N11720 X75.998 Y-47.288 Z-12.18
N11725 X75.924 Y-47.355 Z-12.16
N11730 G2 X75.355 Y-47.913 Z-12. I-6.6 J6.154
N11735 X71.963 Y-49.83 I-6.031 J6.713
N11740 G1 X71.88 Y-49.85
N11745 X71.796 Y-49.858
N11750 X67.381 Y-49.992
N11755 X67.296 Y-49.989
N11760 X67.213 Y-49.974
N11765 G2 X63.733 Y-48.284 I2.111 J8.774
N11770 X63.109 Y-47.743 Z-12.166 I5.592 J7.083
N11775 G1 X63.043 Y-47.689 Z-12.183
N11780 X62.97 Y-47.643 Z-12.2
N11785 X62.619 Y-47.471
N11790 X62.412 Y-47.364
N11795 X61.79 Y-47.005
N11800 X61.561 Y-46.867
N11805 X61.376 Y-46.754
N11810 X61.246 Y-46.66
N11815 X61.022 Y-46.511
N11820 X60.659 Y-46.31
N11825 X60.189 Y-46.098
N11830 X59.567 Y-45.875
N11835 X58.707 Y-45.642
N11840 X57.811 Y-45.476
N11845 X56.907 Y-45.36
N11850 X55.998 Y-45.279
N11855 X55.088 Y-45.221
N11860 X54.177 Y-45.181
N11865 X53.266 Y-45.153
N11870 X52.354 Y-45.133
N11875 X51.443 Y-45.119
N11880 X50.531 Y-45.109
N11885 X49.619 Y-45.102
N11890 X48.707 Y-45.097
N11895 X47.796 Y-45.093
N11900 X45.972 Y-45.089
N11905 X43.237 Y-45.086
N11910 X35.03 Y-45.085
N11915 X16.85
N11920 X16.529 Y-45.12
N11925 X16.224 Y-45.224
N11930 X15.948 Y-45.391
N11935 X15.715 Y-45.614
N11940 X15.357 Y-46.039
N11945 X15.191 Y-46.218
N11950 X14.942 Y-46.453
N11955 X14.777 Y-46.603
N11960 X14.57 Y-46.754
N11965 X14.363 Y-46.88
N11970 X14.156 Y-47.005
N11975 X13.835 Y-47.19
N11980 G3 X13.552 Y-47.87 I0.336 J-0.539
N11985 G1 X13.574 Y-47.967 Z-12.192
N11990 X13.596 Y-48.061 Z-12.169
N11995 X13.616 Y-48.151 Z-12.131
N12000 X13.635 Y-48.234 Z-12.079
N12005 X13.652 Y-48.308 Z-12.014
N12010 X13.666 Y-48.371 Z-11.938
N12015 X13.678 Y-48.422 Z-11.853
N12020 X13.687 Y-48.459 Z-11.761
N12025 X13.692 Y-48.482 Z-11.664
N12030 X13.693 Y-48.489 Z-11.565
N12035 G0 Z5.
N12040 G1 X61.968 Y-47.87 F5000.
N12045 G0 Z-10.93
N12050 G1 Z-11.565 F1016.
N12055 X61.965 Y-47.863 Z-11.664
N12060 X61.956 Y-47.842 Z-11.761
N12065 X61.941 Y-47.806 Z-11.853
N12070 X61.921 Y-47.758 Z-11.938
N12075 X61.896 Y-47.699 Z-12.014
N12080 X61.867 Y-47.629 Z-12.079
N12085 X61.834 Y-47.551 Z-12.131
N12090 X61.798 Y-47.466 Z-12.169
N12095 X61.76 Y-47.377 Z-12.192
N12100 X61.722 Y-47.285 Z-12.2
N12105 G3 X61.246 Y-46.66 I-1.458 J-0.615
N12110 G1 X61.169 Y-46.603
N12115 X61.004 Y-46.453
N12120 X60.755 Y-46.218
N12125 X60.589 Y-46.039
N12130 X60.24 Y-45.624
N12135 X59.894 Y-45.21
N12140 X59.808 Y-45.096
N12145 X59.7 Y-44.966
N12150 X59.507 Y-44.768
N12155 X59.26 Y-44.553
N12160 X58.961 Y-44.331
N12165 X58.578 Y-44.094
N12170 X58.104 Y-43.849
N12175 X57.498 Y-43.596
N12180 X56.698 Y-43.335
N12185 X55.811 Y-43.123
N12190 X54.913 Y-42.968
N12195 X54.008 Y-42.854
N12200 X53.1 Y-42.771
N12205 X52.19 Y-42.71
N12210 X51.28 Y-42.666
N12215 X50.368 Y-42.633
N12220 X49.457 Y-42.609
N12225 X48.545 Y-42.592
N12230 X47.634 Y-42.579
N12235 X46.722 Y-42.57
N12240 X45.81 Y-42.563
N12245 X44.898 Y-42.558
N12250 X43.075 Y-42.552
N12255 X40.339 Y-42.548
N12260 X35.78 Y-42.546
N12265 X19.367 Y-42.545
N12270 X18.603 Y-42.557
N12275 X18.317 Y-42.589
N12280 X18.042 Y-42.676
N12285 X17.789 Y-42.815
N12290 X17.568 Y-43.
N12295 X17.387 Y-43.224
N12300 X16.353 Y-44.796
N12305 X16.208 Y-45.003
N12310 X16.052 Y-45.21
N12315 X15.715 Y-45.614
N12320 G3 X15.682 Y-46.35 I0.5 J-0.391
N12325 G1 X15.736 Y-46.433 Z-12.192
N12330 X15.788 Y-46.515 Z-12.169
N12335 X15.838 Y-46.592 Z-12.131
N12340 X15.884 Y-46.663 Z-12.079
N12345 X15.925 Y-46.727 Z-12.014
N12350 X15.96 Y-46.781 Z-11.938
N12355 X15.989 Y-46.825 Z-11.853
N12360 X16.009 Y-46.857 Z-11.761
N12365 X16.022 Y-46.877 Z-11.664
N12370 X16.026 Y-46.883 Z-11.565
N12375 G0 Z5.
N12380 G1 X60.151 Y-46.463 F5000.
N12385 G0 Z-10.93
N12390 G1 Z-11.565 F1016.
N12395 X60.15 Y-46.456 Z-11.664
N12400 X60.147 Y-46.433 Z-11.761
N12405 X60.143 Y-46.395 Z-11.853
N12410 X60.138 Y-46.343 Z-11.938
N12415 X60.131 Y-46.279 Z-12.014
N12420 X60.123 Y-46.203 Z-12.079
N12425 X60.114 Y-46.119 Z-12.131
N12430 X60.104 Y-46.027 Z-12.169
N12435 X60.094 Y-45.931 Z-12.192
N12440 X60.083 Y-45.832 Z-12.2
N12445 G3 X59.808 Y-45.096 I-1.574 J-0.169
N12450 G1 X59.719 Y-44.977
N12455 X59.593 Y-44.796
N12460 X58.503 Y-43.139
N12465 X58.292 Y-42.85
N12470 X58.099 Y-42.627
N12475 X57.87 Y-42.401
N12480 X57.57 Y-42.15
N12485 X57.219 Y-41.901
N12490 X56.767 Y-41.631
N12495 X56.214 Y-41.359
N12500 X55.505 Y-41.079
N12505 X54.633 Y-40.813
N12510 X53.744 Y-40.612
N12515 X52.845 Y-40.461
N12520 X51.94 Y-40.348
N12525 X51.032 Y-40.262
N12530 X50.123 Y-40.198
N12535 X49.212 Y-40.149
N12540 X48.301 Y-40.113
N12545 X47.39 Y-40.085
N12550 X46.478 Y-40.065
N12555 X45.566 Y-40.05
N12560 X44.655 Y-40.038
N12565 X43.743 Y-40.03
N12570 X42.831 Y-40.023
N12575 X41.919 Y-40.019
N12580 X40.096 Y-40.012
N12585 X37.36 Y-40.008
N12590 X32.801 Y-40.006
N12595 X21.859 Y-40.005
N12600 X20.947 Y-40.008
N12605 X20.561 Y-40.018
N12610 X20.25 Y-40.059
N12615 X19.955 Y-40.164
N12620 X19.689 Y-40.329
N12625 X19.464 Y-40.546
N12630 X18.298 Y-41.936
N12635 X18.157 Y-42.104
N12640 X17.677 Y-42.785
N12645 X17.387 Y-43.224
N12650 G3 X17.44 Y-43.958 I0.542 J-0.33
N12655 G1 X17.503 Y-44.035 Z-12.192
N12660 X17.565 Y-44.11 Z-12.169
N12665 X17.623 Y-44.181 Z-12.131
N12670 X17.677 Y-44.246 Z-12.079
N12675 X17.726 Y-44.305 Z-12.014
N12680 X17.767 Y-44.354 Z-11.938
N12685 X17.8 Y-44.395 Z-11.853
N12690 X17.824 Y-44.424 Z-11.761
N12695 X17.839 Y-44.442 Z-11.664
N12700 X17.844 Y-44.448 Z-11.565
N12705 G0 Z5.
N12710 G1 X58.761 Y-44.525 F5000.
N12715 G0 Z-10.93
N12720 G1 Z-11.565 F1016.
N12725 Y-44.517 Z-11.664
N12730 X58.76 Y-44.494 Z-11.761
N12735 X58.758 Y-44.456 Z-11.853
N12740 X58.756 Y-44.404 Z-11.938
N12745 X58.753 Y-44.339 Z-12.014
N12750 X58.749 Y-44.264 Z-12.079
N12755 X58.745 Y-44.179 Z-12.131
N12760 X58.741 Y-44.087 Z-12.169
N12765 X58.737 Y-43.99 Z-12.192
N12770 X58.732 Y-43.891 Z-12.2
N12775 G3 X58.503 Y-43.139 I-1.581 J-0.072
N12780 G1 X58.27 Y-42.785
N12785 X57.789 Y-42.104
N12790 X57.441 Y-41.689
N12795 X56.4 Y-40.448
N12800 X56.217 Y-40.24
N12805 X55.942 Y-39.959
N12810 X55.663 Y-39.716
N12815 X55.318 Y-39.462
N12820 X54.887 Y-39.194
N12825 X54.355 Y-38.921
N12830 X53.671 Y-38.636
N12835 X52.804 Y-38.354
N12840 X51.918 Y-38.14
N12845 X51.02 Y-37.978
N12850 X50.117 Y-37.855
N12855 X49.21 Y-37.761
N12860 X48.301 Y-37.689
N12865 X47.391 Y-37.635
N12870 X46.48 Y-37.594
N12875 X45.569 Y-37.562
N12880 X44.657 Y-37.539
N12885 X43.745 Y-37.521
N12890 X42.834 Y-37.507
N12895 X41.922 Y-37.497
N12900 X41.01 Y-37.489
N12905 X40.098 Y-37.483
N12910 X39.187 Y-37.478
N12915 X37.363 Y-37.473
N12920 X34.628 Y-37.468
N12925 X30.068 Y-37.466
N12930 X23.686 Y-37.465
N12935 X23.282 Y-37.467
N12940 X22.963 Y-37.503
N12945 X22.66 Y-37.606
N12950 X22.386 Y-37.772
N12955 X22.233 Y-37.889
N12960 X21.819 Y-38.238
N12965 X21.657 Y-38.377
N12970 X20.121 Y-39.826
N12975 X19.955 Y-39.985
N12980 X19.546 Y-40.448
N12985 X19.464 Y-40.546
N12990 G3 X19.431 Y-41.282 I0.5 J-0.391
N12995 G1 X19.484 Y-41.365 Z-12.192
N13000 X19.537 Y-41.447 Z-12.169
N13005 X19.587 Y-41.524 Z-12.131
N13010 X19.633 Y-41.595 Z-12.079
N13015 X19.674 Y-41.659 Z-12.014
N13020 X19.709 Y-41.713 Z-11.938
N13025 X19.738 Y-41.757 Z-11.853
N13030 X19.758 Y-41.789 Z-11.761
N13035 X19.771 Y-41.809 Z-11.664
N13040 X19.775 Y-41.815 Z-11.565
N13045 G0 Z5.
N13050 G1 X56.666 Y-41.576 F5000.
N13055 G0 Z-10.93
N13060 G1 Z-11.565 F1016.
N13065 X56.665 Y-41.569 Z-11.664
N13070 X56.661 Y-41.546 Z-11.761
N13075 X56.654 Y-41.508 Z-11.853
N13080 X56.644 Y-41.457 Z-11.938
N13085 X56.632 Y-41.393 Z-12.014
N13090 X56.618 Y-41.319 Z-12.079
N13095 X56.602 Y-41.236 Z-12.131
N13100 X56.585 Y-41.145 Z-12.169
N13105 X56.567 Y-41.05 Z-12.192
N13110 X56.549 Y-40.952 Z-12.2
N13115 G3 X56.217 Y-40.24 I-1.555 J-0.292
N13120 G1 X55.991 Y-39.985
N13125 X55.784 Y-39.788
N13130 X54.289 Y-38.377
N13135 X54.127 Y-38.238
N13140 X53.713 Y-37.889
N13145 X53.506 Y-37.732
N13150 X52.471 Y-36.961
N13155 X52.062 Y-36.687
N13160 X51.611 Y-36.435
N13165 X51.033 Y-36.171
N13170 X50.282 Y-35.897
N13175 X49.403 Y-35.655
N13180 X48.509 Y-35.475
N13185 X47.607 Y-35.339
N13190 X46.701 Y-35.238
N13195 X45.792 Y-35.161
N13200 X44.882 Y-35.103
N13205 X43.972 Y-35.06
N13210 X43.06 Y-35.027
N13215 X42.149 Y-35.002
N13220 X41.237 Y-34.983
N13225 X40.326 Y-34.969
N13230 X39.414 Y-34.958
N13235 X38.502 Y-34.95
N13240 X37.59 Y-34.944
N13245 X36.678 Y-34.939
N13250 X34.855 Y-34.933
N13255 X32.119 Y-34.928
N13260 X27.56 Y-34.926
N13265 X27.161
N13270 X26.903 Y-34.948
N13275 X26.654 Y-35.015
N13280 X26.419 Y-35.124
N13285 X24.718 Y-36.106
N13290 X24.511 Y-36.228
N13295 X24.304 Y-36.36
N13300 X24.097 Y-36.498
N13305 X22.386 Y-37.772
N13310 X22.331 Y-37.823
N13315 X22.282 Y-37.88
N13320 X22.248 Y-37.948 Z-12.195
N13325 X22.214 Y-38.015 Z-12.182
N13330 X22.181 Y-38.08 Z-12.159
N13335 X22.172 Y-38.144 Z-12.13
N13340 X22.163 Y-38.206 Z-12.093
N13345 X22.155 Y-38.262 Z-12.05
N13350 X22.166 Y-38.324 Z-11.989
N13355 X22.175 Y-38.377 Z-11.92
N13360 X22.183 Y-38.419 Z-11.845
N13365 X22.188 Y-38.452 Z-11.764
N13370 X22.192 Y-38.473 Z-11.68
N13375 X22.194 Y-38.482 Z-11.593
N13380 Y-38.483 Z-11.565
N13385 G0 Z5.
N13390 G1 X53.187 Y-38.174 F5000.
N13395 G0 Z-10.93
N13400 G1 Z-11.565 F1016.
N13405 X53.184 Y-38.167 Z-11.664
N13410 X53.175 Y-38.146 Z-11.761
N13415 X53.16 Y-38.111 Z-11.853
N13420 X53.14 Y-38.062 Z-11.938
N13425 X53.115 Y-38.003 Z-12.014
N13430 X53.086 Y-37.933 Z-12.079
N13435 X53.054 Y-37.854 Z-12.131
N13440 X53.018 Y-37.769 Z-12.169
N13445 X52.981 Y-37.68 Z-12.192
N13450 X52.943 Y-37.588 Z-12.2
N13455 G3 X52.471 Y-36.961 I-1.461 J-0.608
N13460 G1 X51.849 Y-36.498
N13465 X51.642 Y-36.36
N13470 X51.435 Y-36.228
N13475 X51.215 Y-36.099
N13480 X49.364 Y-35.03
N13485 X49.157 Y-34.927
N13490 X48.555 Y-34.649
N13495 X47.086 Y-34.016
N13500 X46.629 Y-33.821
N13505 X46.464 Y-33.752
N13510 X46.05 Y-33.627
N13515 X45.015 Y-33.317
N13520 X44.129 Y-33.099
N13525 X43.239 Y-32.902
N13530 X42.338 Y-32.761
N13535 X41.432 Y-32.659
N13540 X40.523 Y-32.585
N13545 X39.613 Y-32.532
N13550 X38.702 Y-32.492
N13555 X37.791 Y-32.464
N13560 X36.879 Y-32.443
N13565 X35.967 Y-32.428
N13570 X35.303 Y-32.419
N13575 X35.25 Y-32.42
N13580 X35.197 Y-32.422
N13585 X35.144 Y-32.426
N13590 G3 X34.605 Y-32.927 I0.082 J-0.63
N13595 G1 X34.585 Y-33.024 Z-12.192
N13600 X34.565 Y-33.119 Z-12.169
N13605 X34.546 Y-33.209 Z-12.131
N13610 X34.529 Y-33.292 Z-12.079
N13615 X34.514 Y-33.366 Z-12.014
N13620 X34.5 Y-33.43 Z-11.938
N13625 X34.49 Y-33.481 Z-11.853
N13630 X34.482 Y-33.518 Z-11.761
N13635 X34.477 Y-33.541 Z-11.664
N13640 X34.476 Y-33.549 Z-11.565
N13645 G0 Z5.
N13650 G1 X46.103 Y-34.212 F5000.
N13655 G0 Z-10.93
N13660 G1 Z-11.565 F1016.
N13665 X46.098 Y-34.207 Z-11.664
N13670 X46.082 Y-34.189 Z-11.761
N13675 X46.056 Y-34.161 Z-11.853
N13680 X46.021 Y-34.123 Z-11.938
N13685 X45.977 Y-34.075 Z-12.014
N13690 X45.926 Y-34.02 Z-12.079
N13695 X45.868 Y-33.957 Z-12.131
N13700 X45.806 Y-33.889 Z-12.169
N13705 X45.74 Y-33.818 Z-12.192
N13710 X45.673 Y-33.745 Z-12.2
N13715 G3 X45.015 Y-33.317 I-1.165 J-1.071
N13720 G1 X43.772 Y-32.945
N13725 X43.565 Y-32.901
N13730 X41.494 Y-32.536
N13735 X40.873 Y-32.433
N13740 X40.665 Y-32.413
N13745 X38.18 Y-32.268
N13750 X37.973 Y-32.257
N13755 X37.766 Y-32.268
N13760 X35.281 Y-32.413
N13765 X35.074 Y-32.433
N13770 X34.452 Y-32.536
N13775 X32.381 Y-32.901
N13780 X32.174 Y-32.945
N13785 X29.689 Y-33.689
N13790 X29.482 Y-33.752
N13795 X29.274 Y-33.839
N13800 X28.653 Y-34.105
N13805 X27.391 Y-34.649
N13810 X26.789 Y-34.927
N13815 X26.582 Y-35.03
N13820 X26.419 Y-35.124
N13825 G3 X26.137 Y-35.804 I0.336 J-0.539
N13830 G1 X26.159 Y-35.901 Z-12.192
N13835 X26.181 Y-35.995 Z-12.169
N13840 X26.201 Y-36.085 Z-12.131
N13845 X26.22 Y-36.168 Z-12.079
N13850 X26.237 Y-36.242 Z-12.014
N13855 X26.251 Y-36.305 Z-11.938
N13860 X26.263 Y-36.356 Z-11.853
N13865 X26.271 Y-36.393 Z-11.761
N13870 X26.276 Y-36.416 Z-11.664
N13875 X26.278 Y-36.423 Z-11.565
N13880 G0 Z5.
N13885 G1 X4.13 Y-49.915 F5000.
N13890 G0 Z-10.93
N13895 G1 Z-11.565 F1016.
N13900 X4.124 Y-49.91 Z-11.664
N13905 X4.106 Y-49.895 Z-11.761
N13910 X4.076 Y-49.871 Z-11.853
N13915 X4.036 Y-49.839 Z-11.938
N13920 X3.985 Y-49.798 Z-12.014
N13925 X3.926 Y-49.751 Z-12.079
N13930 X3.86 Y-49.697 Z-12.131
N13935 X3.788 Y-49.64 Z-12.169
N13940 X3.713 Y-49.579 Z-12.192
N13945 X3.635 Y-49.517 Z-12.2
N13950 G3 X0.694 Y-47.634 I-10.159 J-12.634
N13955 G1 X0.372 Y-47.488
N13960 X0.28 Y-47.444
N13965 X-0.342 Y-47.127
N13970 X-0.549 Y-47.01
N13975 X-0.756 Y-46.878
N13980 X-0.963 Y-46.73
N13985 X-1.17 Y-46.55
N13990 X-1.278 Y-46.453
N13995 X-1.901 Y-45.831
N14000 X-1.999 Y-45.728
N14005 X-2.206 Y-45.505
N14010 X-2.274 Y-45.417
N14015 X-2.429 Y-45.21
N14020 X-2.557 Y-45.003
N14025 X-2.62 Y-44.899
N14030 X-2.78 Y-44.589
N14035 G3 X-3.445 Y-44.274 I-0.554 J-0.31
N14040 G1 X-3.543 Y-44.291 Z-12.192
N14045 X-3.639 Y-44.308 Z-12.169
N14050 X-3.729 Y-44.325 Z-12.131
N14055 X-3.813 Y-44.34 Z-12.079
N14060 X-3.887 Y-44.353 Z-12.014
N14065 X-3.951 Y-44.364 Z-11.938
N14070 X-4.002 Y-44.373 Z-11.853
N14075 X-4.04 Y-44.38 Z-11.761
N14080 X-4.063 Y-44.384 Z-11.664
N14085 X-4.071 Y-44.386 Z-11.565
N14090 G0 Z5.
N14095 G1 X-5.537 Y-4.079 F5000.
N14100 G0 Z-10.93
N14105 G1 Z-11.565 F1016.
N14110 X-5.532 Y-4.073 Z-11.664
N14115 X-5.517 Y-4.056 Z-11.761
N14120 X-5.492 Y-4.026 Z-11.853
N14125 X-5.459 Y-3.986 Z-11.938
N14130 X-5.417 Y-3.937 Z-12.014
N14135 X-5.368 Y-3.879 Z-12.079
N14140 X-5.314 Y-3.814 Z-12.131
N14145 X-5.255 Y-3.743 Z-12.169
N14150 X-5.193 Y-3.669 Z-12.192
N14155 X-5.129 Y-3.593 Z-12.2
N14160 G3 X-3.187 Y-0.689 I-12.427 J10.41
N14165 G1 X-2.989 Y-0.275
N14170 X-2.886 Y-0.068
N14175 X-2.62 Y0.45
N14180 X-2.557 Y0.553
N14185 X-2.429 Y0.76
N14190 X-2.274 Y0.967
N14195 X-2.206 Y1.055
N14200 X-1.999 Y1.278
N14205 X-1.901 Y1.381
N14210 X-1.278 Y2.003
N14215 X-1.17 Y2.1
N14220 X-0.963 Y2.28
N14225 X-0.756 Y2.428
N14230 X-0.549 Y2.56
N14235 X-0.342 Y2.677
N14240 X-0.135 Y2.783
N14245 G3 X0.183 Y3.447 I-0.308 J0.555
N14250 G1 X0.166 Y3.545 Z-12.192
N14255 X0.149 Y3.64 Z-12.169
N14260 X0.134 Y3.731 Z-12.131
N14265 X0.119 Y3.815 Z-12.079
N14270 X0.106 Y3.889 Z-12.014
N14275 X0.095 Y3.953 Z-11.938
N14280 X0.086 Y4.004 Z-11.853
N14285 X0.08 Y4.042 Z-11.761
N14290 X0.076 Y4.065 Z-11.664
N14295 X0.074 Y4.072 Z-11.565
N14300 G0 Z15.

(2D Contour8)
N14305 G1 X2.54 Y5.08 F5000.
N14310 G0 Z15.
N14315 Z5.
N14320 G1 Z1. F338.67
N14325 Z-12.365
N14330 G19 G2 Y4.445 Z-13. J-0.635 K0. F1016.
N14335 G1 Y3.81
N14340 G17 G3 X3.175 Y3.175 I0.635 J0.
N14345 G1 X72.771
N14350 G2 X79.121 Y-3.175 I0. J-6.35
N14355 G1 Y-41.275
N14360 G2 X72.771 Y-47.625 I-6.35 J0.
N14365 G1 X65.469
N14370 G2 X59.97 Y-44.45 I0. J6.35
N14375 G3 X15.976 I-21.997 J-12.7
N14380 G2 X10.477 Y-47.625 I-5.499 J3.175
N14385 G1 X3.175
N14390 G2 X-3.175 Y-41.275 I0. J6.35
N14395 G1 Y-3.175
N14400 G2 X3.175 Y3.175 I6.35 J0.
N14405 G3 X3.81 Y3.81 I0. J0.635
N14410 G1 Y4.445
N14415 G19 G3 Y5.08 Z-12.365 J0. K0.635
N14420 G0 Z15.
N14425 M9
N14430 M5
N14435 G53 G0 Z0.

(2D Contour9)
N14440 M1
N14445 T3 M6
N14450 S5000 M3
N14455 G17 G90
N14460 G54
N14465 M8
N14470 G1 X37.189 Y-23.608 F5000.
N14475 G0 G43 Z15. H3
N14480 T4
N14485 G0 Z5.
N14490 G1 Z1. F338.67
N14495 Z0.135
N14500 Y-23.616 Z0.036 F1016.
N14505 Y-23.639 Z-0.061
N14510 Y-23.677 Z-0.153
N14515 X37.19 Y-23.729 Z-0.238
N14520 Y-23.794 Z-0.314
N14525 Y-23.87 Z-0.379
N14530 X37.191 Y-23.954 Z-0.431
N14535 Y-24.047 Z-0.469
N14540 Y-24.143 Z-0.492
N14545 X37.192 Y-24.243 Z-0.5
N14550 X37.195 Y-24.878
N14555 G3 X37.833 Y-25.51 I0.635 J0.003
N14560 G2 X45.055 Y-26.312 I0.14 J-31.64
N14565 G3 X49.386 Y-22.864 I0.792 J3.449
N14570 G1 Y-6.604
N14575 G3 X45.847 Y-3.065 I-3.539 J0.
N14580 G1 X30.099
N14585 G3 X26.56 Y-6.604 I0. J-3.539
N14590 G1 Y-22.864
N14595 G3 X30.891 Y-26.312 I3.539 J0.
N14600 G2 X37.833 Y-25.51 I7.082 J-30.838
N14605 G3 X38.465 Y-24.872 I-0.003 J0.635
N14610 G1 X38.462 Y-24.237
N14615 X38.461 Y-24.138 Z-0.492
N14620 Y-24.041 Z-0.469
N14625 Y-23.949 Z-0.431
N14630 X38.46 Y-23.864 Z-0.379
N14635 Y-23.788 Z-0.314
N14640 Y-23.723 Z-0.238
N14645 X38.459 Y-23.671 Z-0.153
N14650 Y-23.633 Z-0.061
N14655 Y-23.61 Z0.036
N14660 Y-23.602 Z0.135
N14665 G0 Z5.
N14670 G1 X73.406 Y-47.642 F5000.
N14675 Z1. F338.67
N14680 Z0.135
N14685 G19 G3 Y-47.007 Z-0.5 J0.635 K0. F1016.
N14690 G1 Y-46.372
N14695 G17 G3 X72.771 Y-45.737 I-0.635 J0.
N14700 G1 X65.469
N14705 G2 X61.605 Y-43.506 I0. J4.462
N14710 G3 X14.341 I-23.632 J-13.644
N14715 G2 X10.477 Y-45.737 I-3.865 J2.231
N14720 G1 X3.175
N14725 G2 X-1.287 Y-41.275 I0. J4.462
N14730 G1 Y-3.175
N14735 G2 X3.175 Y1.287 I4.462 J0.
N14740 G1 X72.771
N14745 G2 X77.233 Y-3.175 I0. J-4.462
N14750 G1 Y-41.275
N14755 G2 X72.771 Y-45.737 I-4.462 J0.
N14760 G3 X72.136 Y-46.372 I0. J-0.635
N14765 G1 Y-47.007
N14770 G19 G2 Y-47.642 Z0.135 J0. K0.635
N14775 G0 Z5.
N14780 G1 X70.976 Y-14.23 F5000.
N14785 Z1. F338.67
N14790 Z0.135
N14795 G18 G2 X71.611 Z-0.5 I0.635 K0. F1016.
N14800 G1 X72.246
N14805 G17 G3 X72.881 Y-13.595 I0. J0.635
N14810 G1 Y-10.404
N14815 G3 X70.859 Y-7.207 I-3.539 J0.
N14820 G2 X68.739 Y-5.087 I1.912 J4.032
N14825 G3 X65.542 Y-3.065 I-3.197 J-1.517
N14830 G1 X57.023
N14835 G3 X53.484 Y-6.604 I0. J-3.539
N14840 G1 Y-27.575
N14845 G3 X55.107 Y-30.55 I3.539 J0.
N14850 G2 X65.374 Y-41.33 I-17.134 J-26.6
N14855 G1 X65.399 Y-41.359
N14860 X65.432 Y-41.378
N14865 X65.469 Y-41.385
N14870 X65.542
N14875 G3 X68.739 Y-39.363 I0. J3.539
N14880 G2 X70.859 Y-37.243 I4.032 J-1.912
N14885 G3 X72.881 Y-34.046 I-1.517 J3.197
N14890 G1 Y-13.595
N14895 G3 X72.246 Y-12.96 I-0.635 J0.
N14900 G1 X71.611
N14905 G18 G3 X70.976 Z0.135 I0. K0.635
N14910 G0 Z5.
N14915 G1 X20.557 Y-14.23 F5000.
N14920 Z1. F338.67
N14925 Z0.135
N14930 G2 X21.192 Z-0.5 I0.635 K0. F1016.
N14935 G1 X21.827
N14940 G17 G3 X22.462 Y-13.595 I0. J0.635
N14945 G1 Y-6.604
N14950 G3 X18.923 Y-3.065 I-3.539 J0.
N14955 G1 X10.404
N14960 G3 X7.207 Y-5.087 I0. J-3.539
N14965 G2 X5.087 Y-7.207 I-4.032 J1.912
N14970 G3 X3.065 Y-10.404 I1.517 J-3.197
N14975 G1 Y-34.046
N14980 G3 X5.087 Y-37.243 I3.539 J0.
N14985 G2 X7.207 Y-39.363 I-1.912 J-4.032
N14990 G3 X10.404 Y-41.385 I3.197 J1.517
N14995 G1 X10.477
N15000 X10.514 Y-41.378
N15005 X10.547 Y-41.359
N15010 X10.572 Y-41.33
N15015 G2 X20.839 Y-30.55 I27.401 J-15.82
N15020 G3 X22.462 Y-27.575 I-1.916 J2.975
N15025 G1 Y-13.595
N15030 G3 X21.827 Y-12.96 I-0.635 J0.
N15035 G1 X21.192
N15040 G18 G3 X20.557 Z0.135 I0. K0.635
N15045 G0 Z15.

(Drill1)
N15050 G17
N15055 G1 X3.175 Y-41.275 F5000.
N15060 G0 Z15.
N15065 Z5.
N15070 G98 G81 X3.175 Y-41.275 Z-1.054 R5. F338.67
N15075 Y-3.175
N15080 X72.771
N15085 Y-41.275
N15090 G80
N15095 G0 Z15.
N15100 M9
N15105 M5
N15110 G53 G0 Z0.

(Drill3)
N15115 M1
N15120 T4 M6
N15125 S10000 M3
N15130 G17 G90
N15135 G54
N15140 M8
N15145 G1 X3.175 Y-41.275 F5000.
N15150 G0 G43 Z15. H4
N15155 T5
N15160 G0 Z5.
N15165 G98 G81 X3.175 Y-41.275 Z-9.144 R5. F541.02
N15170 Y-3.175
N15175 X72.771
N15180 Y-41.275
N15185 G80
N15190 G0 Z15.
N15195 M9
N15200 M5
N15205 G53 G0 Z0.

(Drill4)
N15210 M1
N15215 T5 M6
N15220 S400 M3
N15225 G17 G90
N15230 G54
N15235 M8
N15240 G1 X3.175 Y-41.275 F5000.
N15245 G0 G43 Z15. H5
N15250 T1
N15255 G0 Z5.
N15260 G98 G84 X3.175 Y-41.275 Z-9.144 R4.543 F317.5
N15265 Y-3.175
N15270 X72.771
N15275 Y-41.275
N15280 G80
N15285 G0 Z15.
N15290 M9
N15295 M5
N15300 G53 G0 Z0.

(Slot1)
N15305 M1
N15310 T1 M6
N15315 S5000 M3
N15320 G17 G90
N15325 G54
N15330 M8
N15335 G1 X30.48 Y-13.97 F5000.
N15340 G0 G43 Z15. H1
N15345 T2
N15350 G0 Z5.
N15355 G1 Z2.5 F338.67
N15360 X45.72 Z2.183
N15365 X30.48 Z1.867
N15370 X45.72 Z1.55
N15375 X30.48 Z1.233
N15380 X45.72 Z0.917
N15385 X30.48 Z0.6
N15390 X45.72 Z0.283
N15395 X30.48 Z-0.033
N15400 X45.72 Z-0.35
N15405 X30.48 Z-0.667
N15410 X45.72 Z-0.983
N15415 X30.48 Z-1.3
N15420 X45.72 Z-1.617
N15425 X30.48 Z-1.933
N15430 X45.72 Z-2.25
N15435 X30.48 Z-2.567
N15440 X45.72 Z-2.883
N15445 X30.48 Z-3.2
N15450 X45.72 Z-3.517
N15455 X30.48 Z-3.833
N15460 X45.72 Z-4.15
N15465 X30.48 Z-4.467
N15470 X45.72 Z-4.783
N15475 X30.48 Z-5.1
N15480 X45.72 Z-5.417
N15485 X30.48 Z-5.733
N15490 X45.72 Z-6.05
N15495 X30.48 Z-6.367
N15500 X45.72 Z-6.683
N15505 X30.48 Z-7.
N15510 X45.72 Z-7.317
N15515 X30.48 Z-7.633
N15520 X45.72 Z-7.95
N15525 X30.48 Z-8.267
N15530 X45.72 Z-8.583
N15535 X30.48 Z-8.9
N15540 X45.72 Z-9.217
N15545 X30.48 Z-9.533
N15550 X45.72 Z-9.85
N15555 X30.48 Z-10.167
N15560 X45.72 Z-10.483
N15565 X30.48 Z-10.8
N15570 X45.72 Z-11.117
N15575 X30.48 Z-11.433
N15580 X45.72 Z-11.75
N15585 X30.48 Z-12.067
N15590 X45.72 Z-12.383
N15595 X30.48 Z-12.7
N15600 X45.72 F1016.
N15605 G0 Z15.

N15610 M5
N15615 M9
N15620 G53 G0 Z0.
N15625 X37.973
N15630 G53 G0 Y0.
N15635 M30

%
